; generated by Slic3r 1.3.0 on 2019-04-21 at 16:48:49

; external perimeters extrusion width = 0.44mm (1.99mm^3/s)
; perimeters extrusion width = 0.56mm (5.17mm^3/s)
; infill extrusion width = 0.50mm (7.31mm^3/s)
; solid infill extrusion width = 0.56mm (2.07mm^3/s)
; top infill extrusion width = 0.56mm (1.55mm^3/s)
; support material extrusion width = 0.44mm (6.35mm^3/s)

M107
M190 S115 ; set bed temperature and wait for it to be reached
M104 S245 ; set temperature
G28 ; home all axes
G1 Z5 F5000 ; lift nozzle

; Filament gcode

M109 S245 ; set temperature and wait for it to be reached
G21 ; set units to millimeters
G90 ; use absolute coordinates
M82 ; use absolute distances for extrusion
G92 E0
G1 Z0.300 F7200.000
G1 E-2.00000 F2400.00000
G92 E0
G1 X12.016 Y11.475 F7200.000
G1 E2.00000 F2400.00000
G1 F1200
G1 X12.876 Y10.700 E2.03401
G1 X14.076 Y9.767 E2.07868
G1 X19.292 Y6.187 E2.26461
G1 X21.727 Y5.189 E2.34193
G1 X22.778 Y5.029 E2.37319
G1 X24.131 Y4.917 E2.41308
G1 X24.695 Y4.896 E2.42965
G1 X207.469 Y6.345 E7.80116
G1 X209.655 Y6.759 E7.86654
G1 X211.556 Y7.914 E7.93191
G1 X212.931 Y9.663 E7.99729
G1 X213.653 Y12.776 E8.09120
G1 X213.269 Y25.010 E8.45091
G1 X212.092 Y37.587 E8.82213
G1 X210.128 Y50.065 E9.19335
G1 X207.384 Y62.395 E9.56457
G1 X203.872 Y74.529 E9.93579
G1 X199.461 Y86.782 E10.31850
G1 X194.433 Y98.370 E10.68972
G1 X188.687 Y109.619 E11.06095
G1 X182.246 Y120.485 E11.43214
G1 X175.136 Y130.926 E11.80337
G1 X167.384 Y140.900 E12.17461
G1 X159.289 Y150.081 E12.53432
G1 X150.583 Y158.805 E12.89653
G1 X150.081 Y159.289 E12.91702
G1 X140.900 Y167.384 E13.27673
G1 X130.926 Y175.136 E13.64797
G1 X120.485 Y182.246 E14.01920
G1 X109.619 Y188.687 E14.39039
G1 X98.370 Y194.433 E14.76162
G1 X86.418 Y199.605 E15.14434
G1 X74.901 Y203.751 E15.50405
G1 X62.774 Y207.287 E15.87527
G1 X50.450 Y210.054 E16.24648
G1 X37.587 Y212.092 E16.62921
G1 X25.401 Y213.244 E16.98892
G1 X12.776 Y213.653 E17.36014
G1 X10.575 Y213.325 E17.42552
G1 X8.630 Y212.245 E17.49089
G1 X7.188 Y210.552 E17.55626
G1 X6.344 Y207.420 E17.65158
G1 X6.347 Y24.574 E23.02501
G1 X6.372 Y23.809 E23.04752
G1 X6.468 Y22.655 E23.08152
G1 X6.710 Y21.126 E23.12704
G1 X6.975 Y19.999 E23.16106
G1 X7.189 Y19.263 E23.18358
G1 X7.713 Y17.806 E23.22908
G1 X8.018 Y17.103 E23.25160
G1 X8.533 Y16.065 E23.28566
G1 X9.320 Y14.733 E23.33112
G1 X9.981 Y13.783 E23.36513
G1 X10.451 Y13.178 E23.38765
G1 X11.206 Y12.302 E23.42165
G1 X11.974 Y11.517 E23.45390
G1 E21.45390 F2400.00000
G92 E0
G1 X40.668 Y40.829 F7200.000
G1 E2.00000 F2400.00000
G1 F1200
G1 X41.180 Y40.378 E2.02005
G1 X41.767 Y40.031 E2.04009
G1 X42.400 Y39.803 E2.05985
G1 X42.856 Y39.716 E2.07350
G1 X43.290 Y39.688 E2.08627
G1 X43.546 Y39.696 E2.09382
G1 X43.998 Y39.753 E2.10722
G1 X44.644 Y39.941 E2.12697
G1 X45.252 Y40.250 E2.14702
G1 X45.791 Y40.668 E2.16706
G1 X46.242 Y41.180 E2.18711
G1 X46.584 Y41.759 E2.20687
G1 X46.755 Y42.191 E2.22052
G1 X46.871 Y42.641 E2.23418
G1 X46.934 Y43.310 E2.25394
G1 X46.871 Y43.979 E2.27369
G1 X46.755 Y44.429 E2.28735
G1 X46.584 Y44.861 E2.30101
G1 X46.242 Y45.440 E2.32077
G1 X45.791 Y45.952 E2.34081
G1 X45.252 Y46.370 E2.36085
G1 X44.644 Y46.679 E2.38090
G1 X43.989 Y46.870 E2.40095
G1 X43.310 Y46.934 E2.42099
G1 X42.641 Y46.871 E2.44075
G1 X42.191 Y46.755 E2.45441
G1 X41.759 Y46.584 E2.46806
G1 X41.180 Y46.242 E2.48782
G1 X40.668 Y45.791 E2.50787
G1 X40.250 Y45.252 E2.52791
G1 X39.941 Y44.644 E2.54795
G1 X39.750 Y43.989 E2.56800
G1 X39.686 Y43.310 E2.58805
G1 X39.750 Y42.631 E2.60809
G1 X39.941 Y41.976 E2.62814
G1 X40.250 Y41.368 E2.64818
G1 X40.631 Y40.877 E2.66646
G1 X40.841 Y40.991 F7200.000
G1 F1200
G1 X41.319 Y40.570 E2.68520
G1 X41.868 Y40.245 E2.70394
G1 X42.462 Y40.031 E2.72249
G1 X42.885 Y39.950 E2.73517
G1 X43.294 Y39.924 E2.74719
G1 X43.528 Y39.931 E2.75408
G1 X43.951 Y39.984 E2.76659
G1 X44.557 Y40.161 E2.78515
G1 X45.125 Y40.450 E2.80389
G1 X45.629 Y40.841 E2.82262
G1 X46.050 Y41.319 E2.84136
G1 X46.372 Y41.863 E2.85992
G1 X46.531 Y42.263 E2.87259
G1 X46.638 Y42.681 E2.88527
G1 X46.697 Y43.310 E2.90383
G1 X46.638 Y43.939 E2.92238
G1 X46.531 Y44.357 E2.93506
G1 X46.372 Y44.757 E2.94774
G1 X46.050 Y45.301 E2.96630
G1 X45.629 Y45.779 E2.98503
G1 X45.125 Y46.170 E3.00377
G1 X44.557 Y46.459 E3.02250
G1 X43.945 Y46.637 E3.04124
G1 X43.310 Y46.697 E3.05998
G1 X42.681 Y46.638 E3.07853
G1 X42.263 Y46.531 E3.09121
G1 X41.863 Y46.372 E3.10389
G1 X41.319 Y46.050 E3.12244
G1 X40.841 Y45.629 E3.14118
G1 X40.450 Y45.125 E3.15992
G1 X40.161 Y44.557 E3.17865
G1 X39.983 Y43.945 E3.19739
G1 X39.923 Y43.310 E3.21613
G1 X39.983 Y42.675 E3.23486
G1 X40.161 Y42.063 E3.25360
G1 X40.450 Y41.495 E3.27233
G1 X40.804 Y41.039 E3.28931
G1 X41.013 Y41.153 F7200.000
G1 F1200
G1 X41.458 Y40.761 E3.30673
G1 X41.969 Y40.459 E3.32416
G1 X42.524 Y40.259 E3.34152
G1 X42.915 Y40.185 E3.35321
G1 X43.298 Y40.160 E3.36449
G1 X43.510 Y40.166 E3.37072
G1 X43.903 Y40.216 E3.38235
G1 X44.470 Y40.381 E3.39971
G1 X44.998 Y40.650 E3.41714
G1 X45.467 Y41.013 E3.43456
G1 X45.859 Y41.458 E3.45199
G1 X46.160 Y41.967 E3.46935
G1 X46.306 Y42.336 E3.48104
G1 X46.405 Y42.722 E3.49274
G1 X46.461 Y43.310 E3.51010
G1 X46.405 Y43.898 E3.52745
G1 X46.306 Y44.284 E3.53915
G1 X46.160 Y44.653 E3.55085
G1 X45.859 Y45.162 E3.56821
G1 X45.467 Y45.607 E3.58563
G1 X44.998 Y45.970 E3.60306
G1 X44.470 Y46.239 E3.62049
G1 X43.900 Y46.405 E3.63792
G1 X43.310 Y46.461 E3.65534
G1 X42.722 Y46.405 E3.67270
G1 X42.336 Y46.306 E3.68440
G1 X41.967 Y46.160 E3.69609
G1 X41.458 Y45.859 E3.71345
G1 X41.013 Y45.467 E3.73088
G1 X40.650 Y44.998 E3.74830
G1 X40.381 Y44.470 E3.76573
G1 X40.215 Y43.900 E3.78316
G1 X40.159 Y43.310 E3.80059
G1 X40.215 Y42.720 E3.81801
G1 X40.381 Y42.150 E3.83544
G1 X40.650 Y41.622 E3.85287
G1 X40.976 Y41.201 E3.86853
G1 X41.013 Y41.153 F7200.000
G1 E1.86853 F2400.00000
G92 E0
G1 X29.733 Y29.873 F7200.000
G1 E2.00000 F2400.00000
G1 F1200
G1 X29.309 Y30.257 E2.01681
G1 X28.956 Y30.531 E2.02995
G1 X28.586 Y30.783 E2.04310
G1 X28.201 Y31.011 E2.05625
G1 X27.802 Y31.214 E2.06940
G1 X27.392 Y31.391 E2.08254
G1 X26.971 Y31.543 E2.09569
G1 X26.541 Y31.668 E2.10884
G1 X26.104 Y31.765 E2.12199
G1 X25.663 Y31.835 E2.13513
G1 X25.217 Y31.878 E2.14828
G1 X24.770 Y31.892 E2.16143
G1 X24.323 Y31.878 E2.17458
G1 X23.877 Y31.835 E2.18773
G1 X23.436 Y31.765 E2.20087
G1 X22.999 Y31.668 E2.21402
G1 X22.569 Y31.543 E2.22717
G1 X22.148 Y31.391 E2.24032
G1 X21.738 Y31.214 E2.25346
G1 X21.339 Y31.011 E2.26661
G1 X20.954 Y30.783 E2.27976
G1 X20.584 Y30.531 E2.29291
G1 X20.231 Y30.257 E2.30606
G1 X19.895 Y29.961 E2.31920
G1 X19.579 Y29.645 E2.33235
G1 X19.283 Y29.309 E2.34550
G1 X19.009 Y28.956 E2.35865
G1 X18.757 Y28.586 E2.37179
G1 X18.529 Y28.201 E2.38494
G1 X18.326 Y27.802 E2.39809
G1 X18.149 Y27.392 E2.41124
G1 X17.997 Y26.971 E2.42438
G1 X17.872 Y26.541 E2.43753
G1 X17.775 Y26.104 E2.45068
G1 X17.705 Y25.663 E2.46383
G1 X17.663 Y25.217 E2.47698
G1 X17.648 Y24.770 E2.49012
G1 X17.663 Y24.323 E2.50327
G1 X17.705 Y23.877 E2.51642
G1 X17.775 Y23.434 E2.52962
G1 X17.886 Y22.948 E2.54427
G1 X18.145 Y22.157 E2.56873
G1 X18.326 Y21.738 E2.58215
G1 X18.529 Y21.339 E2.59529
G1 X18.757 Y20.954 E2.60844
G1 X19.009 Y20.584 E2.62159
G1 X19.283 Y20.231 E2.63474
G1 X19.579 Y19.895 E2.64788
G1 X19.895 Y19.579 E2.66103
G1 X20.231 Y19.283 E2.67418
G1 X20.584 Y19.009 E2.68733
G1 X20.954 Y18.757 E2.70047
G1 X21.339 Y18.529 E2.71362
G1 X21.746 Y18.322 E2.72704
G1 X22.519 Y18.014 E2.75150
G1 X22.997 Y17.873 E2.76615
G1 X23.436 Y17.775 E2.77935
G1 X23.887 Y17.703 E2.79277
G1 X24.717 Y17.650 E2.81723
G1 X25.215 Y17.662 E2.83187
G1 X25.663 Y17.705 E2.84508
G1 X26.104 Y17.775 E2.85822
G1 X26.541 Y17.872 E2.87137
G1 X26.971 Y17.997 E2.88452
G1 X27.392 Y18.149 E2.89766
G1 X27.802 Y18.326 E2.91081
G1 X28.201 Y18.529 E2.92396
G1 X28.586 Y18.757 E2.93711
G1 X28.956 Y19.009 E2.95026
G1 X29.309 Y19.283 E2.96340
G1 X29.645 Y19.579 E2.97655
G1 X29.961 Y19.895 E2.98970
G1 X30.257 Y20.231 E3.00285
G1 X30.531 Y20.584 E3.01599
G1 X30.783 Y20.954 E3.02914
G1 X31.011 Y21.339 E3.04229
G1 X31.214 Y21.738 E3.05544
G1 X31.391 Y22.148 E3.06858
G1 X31.543 Y22.569 E3.08173
G1 X31.668 Y22.999 E3.09488
G1 X31.765 Y23.436 E3.10803
G1 X31.835 Y23.877 E3.12117
G1 X31.878 Y24.323 E3.13432
G1 X31.892 Y24.770 E3.14747
G1 X31.878 Y25.217 E3.16062
G1 X31.835 Y25.663 E3.17377
G1 X31.765 Y26.104 E3.18691
G1 X31.668 Y26.541 E3.20006
G1 X31.543 Y26.971 E3.21321
G1 X31.391 Y27.392 E3.22636
G1 X31.214 Y27.802 E3.23950
G1 X31.011 Y28.201 E3.25265
G1 X30.783 Y28.586 E3.26580
G1 X30.531 Y28.956 E3.27895
G1 X30.257 Y29.309 E3.29210
G1 X29.776 Y29.831 E3.31295
G1 X29.567 Y29.707 F7200.000
G1 F1200
G1 X29.159 Y30.076 E3.32911
G1 X28.817 Y30.341 E3.34182
G1 X28.460 Y30.584 E3.35453
G1 X28.087 Y30.804 E3.36724
G1 X27.702 Y31.000 E3.37996
G1 X27.305 Y31.172 E3.39267
G1 X26.898 Y31.319 E3.40538
G1 X26.482 Y31.439 E3.41809
G1 X26.060 Y31.534 E3.43081
G1 X25.633 Y31.601 E3.44352
G1 X25.202 Y31.642 E3.45623
G1 X24.770 Y31.656 E3.46894
G1 X24.338 Y31.642 E3.48166
G1 X23.907 Y31.601 E3.49437
G1 X23.480 Y31.534 E3.50708
G1 X23.058 Y31.439 E3.51980
G1 X22.642 Y31.319 E3.53251
G1 X22.235 Y31.172 E3.54522
G1 X21.838 Y31.000 E3.55793
G1 X21.453 Y30.804 E3.57065
G1 X21.080 Y30.584 E3.58336
G1 X20.723 Y30.341 E3.59607
G1 X20.381 Y30.076 E3.60878
G1 X20.056 Y29.790 E3.62149
G1 X19.750 Y29.484 E3.63421
G1 X19.464 Y29.159 E3.64692
G1 X19.199 Y28.817 E3.65963
G1 X18.956 Y28.460 E3.67234
G1 X18.736 Y28.087 E3.68506
G1 X18.540 Y27.702 E3.69777
G1 X18.368 Y27.305 E3.71048
G1 X18.221 Y26.898 E3.72319
G1 X18.101 Y26.482 E3.73591
G1 X18.006 Y26.060 E3.74862
G1 X17.938 Y25.633 E3.76133
G1 X17.898 Y25.202 E3.77405
G1 X17.884 Y24.770 E3.78676
G1 X17.898 Y24.338 E3.79947
G1 X17.938 Y23.907 E3.81218
G1 X18.006 Y23.479 E3.82493
G1 X18.114 Y23.011 E3.83903
G1 X18.365 Y22.240 E3.86285
G1 X18.540 Y21.838 E3.87573
G1 X18.736 Y21.453 E3.88844
G1 X18.956 Y21.080 E3.90116
G1 X19.199 Y20.723 E3.91387
G1 X19.464 Y20.381 E3.92658
G1 X19.750 Y20.056 E3.93929
G1 X20.056 Y19.750 E3.95201
G1 X20.381 Y19.464 E3.96472
G1 X20.723 Y19.199 E3.97743
G1 X21.080 Y18.956 E3.99014
G1 X21.453 Y18.736 E4.00286
G1 X21.843 Y18.537 E4.01574
G1 X22.597 Y18.237 E4.03956
G1 X23.056 Y18.101 E4.05366
G1 X23.480 Y18.006 E4.06641
G1 X23.913 Y17.938 E4.07929
G1 X24.722 Y17.885 E4.10311
G1 X25.201 Y17.898 E4.11721
G1 X25.633 Y17.938 E4.12996
G1 X26.060 Y18.006 E4.14267
G1 X26.482 Y18.101 E4.15538
G1 X26.898 Y18.221 E4.16809
G1 X27.305 Y18.368 E4.18081
G1 X27.702 Y18.540 E4.19352
G1 X28.087 Y18.736 E4.20623
G1 X28.460 Y18.956 E4.21894
G1 X28.817 Y19.199 E4.23166
G1 X29.159 Y19.464 E4.24437
G1 X29.484 Y19.750 E4.25708
G1 X29.790 Y20.056 E4.26979
G1 X30.076 Y20.381 E4.28251
G1 X30.341 Y20.723 E4.29522
G1 X30.584 Y21.080 E4.30793
G1 X30.804 Y21.453 E4.32064
G1 X31.000 Y21.838 E4.33336
G1 X31.172 Y22.235 E4.34607
G1 X31.319 Y22.642 E4.35878
G1 X31.439 Y23.058 E4.37149
G1 X31.534 Y23.480 E4.38421
G1 X31.601 Y23.907 E4.39692
G1 X31.642 Y24.338 E4.40963
G1 X31.656 Y24.770 E4.42234
G1 X31.642 Y25.202 E4.43505
G1 X31.601 Y25.633 E4.44777
G1 X31.534 Y26.060 E4.46048
G1 X31.439 Y26.482 E4.47319
G1 X31.319 Y26.898 E4.48591
G1 X31.172 Y27.305 E4.49862
G1 X31.000 Y27.702 E4.51133
G1 X30.804 Y28.087 E4.52404
G1 X30.584 Y28.460 E4.53676
G1 X30.341 Y28.817 E4.54947
G1 X30.076 Y29.159 E4.56218
G1 X29.609 Y29.664 E4.58239
G1 X29.400 Y29.540 F7200.000
G1 F1200
G1 X29.009 Y29.894 E4.59789
G1 X28.679 Y30.150 E4.61016
G1 X28.333 Y30.385 E4.62244
G1 X27.974 Y30.598 E4.63472
G1 X27.601 Y30.787 E4.64700
G1 X27.218 Y30.953 E4.65927
G1 X26.825 Y31.095 E4.67155
G1 X26.424 Y31.211 E4.68383
G1 X26.016 Y31.302 E4.69611
G1 X25.604 Y31.368 E4.70838
G1 X25.188 Y31.407 E4.72066
G1 X24.770 Y31.420 E4.73294
G1 X24.352 Y31.407 E4.74521
G1 X23.936 Y31.368 E4.75749
G1 X23.524 Y31.302 E4.76977
G1 X23.116 Y31.211 E4.78205
G1 X22.715 Y31.095 E4.79432
G1 X22.322 Y30.953 E4.80660
G1 X21.939 Y30.787 E4.81888
G1 X21.566 Y30.598 E4.83116
G1 X21.207 Y30.385 E4.84343
G1 X20.861 Y30.150 E4.85571
G1 X20.531 Y29.894 E4.86799
G1 X20.218 Y29.618 E4.88026
G1 X19.922 Y29.322 E4.89254
G1 X19.646 Y29.009 E4.90482
G1 X19.390 Y28.679 E4.91710
G1 X19.155 Y28.333 E4.92937
G1 X18.943 Y27.974 E4.94165
G1 X18.753 Y27.601 E4.95393
G1 X18.587 Y27.218 E4.96621
G1 X18.445 Y26.825 E4.97848
G1 X18.329 Y26.424 E4.99076
G1 X18.238 Y26.016 E5.00304
G1 X18.172 Y25.604 E5.01531
G1 X18.133 Y25.188 E5.02759
G1 X18.120 Y24.770 E5.03987
G1 X18.133 Y24.352 E5.05214
G1 X18.172 Y23.936 E5.06442
G1 X18.238 Y23.523 E5.07671
G1 X18.341 Y23.074 E5.09026
G1 X18.586 Y22.324 E5.11345
G1 X18.753 Y21.939 E5.12580
G1 X18.943 Y21.566 E5.13807
G1 X19.155 Y21.207 E5.15035
G1 X19.390 Y20.861 E5.16263
G1 X19.646 Y20.531 E5.17491
G1 X19.922 Y20.218 E5.18718
G1 X20.218 Y19.922 E5.19946
G1 X20.531 Y19.646 E5.21174
G1 X20.861 Y19.390 E5.22401
G1 X21.207 Y19.155 E5.23629
G1 X21.566 Y18.943 E5.24857
G1 X21.941 Y18.752 E5.26091
G1 X22.674 Y18.460 E5.28410
G1 X23.116 Y18.329 E5.29765
G1 X23.524 Y18.238 E5.30994
G1 X23.939 Y18.172 E5.32228
G1 X24.726 Y18.121 E5.34548
G1 X25.187 Y18.133 E5.35902
G1 X25.604 Y18.172 E5.37132
G1 X26.016 Y18.238 E5.38359
G1 X26.424 Y18.329 E5.39587
G1 X26.825 Y18.445 E5.40815
G1 X27.218 Y18.587 E5.42042
G1 X27.601 Y18.753 E5.43270
G1 X27.974 Y18.943 E5.44498
G1 X28.333 Y19.155 E5.45726
G1 X28.679 Y19.390 E5.46953
G1 X29.009 Y19.646 E5.48181
G1 X29.322 Y19.922 E5.49409
G1 X29.618 Y20.218 E5.50637
G1 X29.894 Y20.531 E5.51864
G1 X30.150 Y20.861 E5.53092
G1 X30.385 Y21.207 E5.54320
G1 X30.598 Y21.566 E5.55547
G1 X30.787 Y21.939 E5.56775
G1 X30.953 Y22.322 E5.58003
G1 X31.095 Y22.715 E5.59231
G1 X31.211 Y23.116 E5.60458
G1 X31.302 Y23.524 E5.61686
G1 X31.368 Y23.936 E5.62914
G1 X31.407 Y24.352 E5.64142
G1 X31.420 Y24.770 E5.65369
G1 X31.407 Y25.188 E5.66597
G1 X31.368 Y25.604 E5.67825
G1 X31.302 Y26.016 E5.69052
G1 X31.211 Y26.424 E5.70280
G1 X31.095 Y26.825 E5.71508
G1 X30.953 Y27.218 E5.72736
G1 X30.787 Y27.601 E5.73963
G1 X30.598 Y27.974 E5.75191
G1 X30.385 Y28.333 E5.76419
G1 X30.150 Y28.679 E5.77647
G1 X29.894 Y29.009 E5.78874
G1 X29.442 Y29.498 E5.80830
G1 X29.430 Y29.646 F7200.000
G1 E3.80830 F2400.00000
G92 E0
G1 X13.201 Y206.779 F7200.000
G1 E2.00000 F2400.00000
G1 F1200
G1 X13.201 Y24.780 E7.34855
G1 X13.224 Y24.044 E7.37019
G1 X13.293 Y23.320 E7.39155
G1 X13.406 Y22.602 E7.41291
G1 X13.565 Y21.893 E7.43427
G1 X13.768 Y21.195 E7.45562
G1 X14.014 Y20.511 E7.47698
G1 X14.301 Y19.848 E7.49823
G1 X14.633 Y19.197 E7.51970
G1 X15.002 Y18.571 E7.54105
G1 X15.411 Y17.970 E7.56241
G1 X15.856 Y17.396 E7.58377
G1 X16.337 Y16.851 E7.60512
G1 X16.851 Y16.337 E7.62648
G1 X17.396 Y15.856 E7.64784
G1 X17.970 Y15.411 E7.66920
G1 X18.571 Y15.002 E7.69055
G1 X19.197 Y14.632 E7.71191
G1 X19.844 Y14.303 E7.73327
G1 X20.511 Y14.014 E7.75463
G1 X21.195 Y13.768 E7.77598
G1 X21.893 Y13.565 E7.79734
G1 X22.602 Y13.406 E7.81870
G1 X23.320 Y13.293 E7.84006
G1 X24.044 Y13.224 E7.86142
G1 X24.780 Y13.201 E7.88306
G1 X206.779 Y13.201 E13.23161
G1 X206.416 Y24.775 E13.57190
G1 X205.267 Y36.922 E13.93047
G1 X203.358 Y48.973 E14.28903
G1 X200.697 Y60.880 E14.64759
G1 X197.293 Y72.597 E15.00616
G1 X193.160 Y84.077 E15.36472
G1 X188.315 Y95.274 E15.72328
G1 X182.775 Y106.145 E16.08184
G1 X176.564 Y116.647 E16.44040
G1 X169.706 Y126.739 E16.79897
G1 X162.228 Y136.380 E17.15754
G1 X154.159 Y145.532 E17.51610
G1 X145.532 Y154.159 E17.87466
G1 X136.380 Y162.228 E18.23322
G1 X126.739 Y169.706 E18.59179
G1 X116.647 Y176.564 E18.95037
G1 X106.145 Y182.775 E19.30892
G1 X95.274 Y188.315 E19.66749
G1 X84.077 Y193.160 E20.02605
G1 X72.597 Y197.293 E20.38461
G1 X60.880 Y200.697 E20.74317
G1 X48.973 Y203.358 E21.10173
G1 X36.922 Y205.267 E21.46030
G1 X24.775 Y206.416 E21.81886
G1 X13.261 Y206.777 E22.15739
G1 X12.966 Y207.022 F7200.000
G1 F1200
G1 X12.966 Y24.776 E27.51320
G1 X12.989 Y24.029 E27.53517
G1 X13.059 Y23.291 E27.55696
G1 X13.175 Y22.558 E27.57875
G1 X13.337 Y21.834 E27.60054
G1 X13.544 Y21.122 E27.62234
G1 X13.795 Y20.425 E27.64413
G1 X14.088 Y19.747 E27.66581
G1 X14.426 Y19.083 E27.68772
G1 X14.803 Y18.445 E27.70951
G1 X15.220 Y17.832 E27.73130
