; generated by Slic3r 1.3.0 on 2019-03-09 at 21:18:10

; external perimeters extrusion width = 0.44mm (0.84mm^3/s)
; perimeters extrusion width = 0.56mm (2.15mm^3/s)
; infill extrusion width = 0.50mm (2.87mm^3/s)
; solid infill extrusion width = 0.56mm (1.08mm^3/s)
; top infill extrusion width = 0.56mm (0.81mm^3/s)
; support material extrusion width = 0.44mm (2.51mm^3/s)

M107
M190 S110 ; set bed temperature and wait for it to be reached
M104 S245 ; set temperature
G28 ; home all axes
G1 Z5 F5000 ; lift nozzle

; Filament gcode

M109 S245 ; set temperature and wait for it to be reached
G21 ; set units to millimeters
G90 ; use absolute coordinates
M82 ; use absolute distances for extrusion
G92 E0
G1 Z0.300 F7200.000
G1 E-2.00000 F2400.00000
G92 E0
G1 X88.508 Y85.117 F7200.000
G1 E2.00000 F2400.00000
G1 F1080
G1 X96.655 Y76.503 E2.79208
G1 X97.383 Y75.814 E2.85902
G1 X98.053 Y75.221 E2.91882
G1 X98.912 Y74.530 E2.99247
G1 X99.927 Y73.797 E3.07607
G1 X101.161 Y73.019 E3.17351
G1 X102.443 Y72.323 E3.27098
G1 X103.759 Y71.716 E3.36779
G1 X105.253 Y71.149 E3.47458
G1 X106.514 Y70.761 E3.56270
G1 X107.884 Y70.432 E3.65683
G1 X109.499 Y70.158 E3.76625
G1 X110.815 Y70.023 E3.85462
G1 X112.271 Y69.966 E3.95197
G1 X113.697 Y70.003 E4.04726
G1 X115.125 Y70.131 E4.14306
G1 X115.538 Y70.186 E4.17091
G1 X116.937 Y70.430 E4.26574
G1 X118.363 Y70.777 E4.36381
G1 X119.692 Y71.190 E4.45676
G1 X121.021 Y71.698 E4.55181
G1 X121.942 Y72.109 E4.61919
G1 X122.995 Y72.648 E4.69820
G1 X123.642 Y73.009 E4.74774
G1 X124.439 Y73.495 E4.81006
G1 X125.613 Y74.304 E4.90536
G1 X126.586 Y75.068 E4.98796
G1 X127.049 Y75.456 E5.02831
G1 X128.095 Y76.430 E5.12385
G1 X129.161 Y77.564 E5.22779
G1 X130.088 Y78.696 E5.32554
G1 X130.929 Y79.872 E5.42213
G1 X131.402 Y80.614 E5.48093
G1 X131.792 Y81.278 E5.53234
G1 X132.463 Y82.564 E5.62925
G1 X133.027 Y83.837 E5.72227
G1 X133.386 Y84.777 E5.78951
G1 X133.833 Y86.183 E5.88806
G1 X134.177 Y87.576 E5.98391
G1 X134.376 Y88.628 E6.05545
G1 X134.534 Y89.794 E6.13404
G1 X134.624 Y90.862 E6.20567
G1 X134.665 Y91.948 E6.27826
G1 X134.665 Y127.532 E8.65547
G1 X134.659 Y128.392 E8.71290
G1 X134.612 Y129.339 E8.77628
G1 X134.488 Y130.589 E8.86017
G1 X134.353 Y131.509 E8.92226
G1 X134.100 Y132.765 E9.00785
G1 X133.793 Y133.957 E9.09014
G1 X133.224 Y135.666 E9.21042
G1 X132.761 Y136.795 E9.29198
G1 X132.144 Y138.074 E9.38684
G1 X131.615 Y139.031 E9.45985
G1 X130.850 Y140.246 E9.55579
G1 X130.000 Y141.418 E9.65252
G1 X129.064 Y142.547 E9.75046
G1 X128.205 Y143.461 E9.83429
G1 X127.191 Y144.419 E9.92747
G1 X126.074 Y145.348 E10.02454
G1 X124.938 Y146.174 E10.11838
G1 X124.537 Y146.442 E10.15056
G1 X123.291 Y147.194 E10.24781
G1 X122.381 Y147.677 E10.31662
G1 X121.063 Y148.285 E10.41359
G1 X119.697 Y148.809 E10.51134
G1 X118.312 Y149.238 E10.60817
G1 X116.896 Y149.579 E10.70549
G1 X116.473 Y149.661 E10.73429
G1 X115.037 Y149.879 E10.83130
G1 X114.009 Y149.977 E10.90028
G1 X112.809 Y150.027 E10.98054
G1 X112.129 Y150.033 E11.02598
G1 X110.850 Y149.978 E11.11152
G1 X109.285 Y149.814 E11.21661
G1 X107.887 Y149.570 E11.31142
G1 X106.496 Y149.234 E11.40704
G1 X105.135 Y148.812 E11.50219
G1 X104.189 Y148.460 E11.56963
G1 X103.802 Y148.302 E11.59753
G1 X102.588 Y147.749 E11.68669
G1 X101.611 Y147.238 E11.76033
G1 X100.685 Y146.689 E11.83229
G1 X99.952 Y146.218 E11.89045
G1 X99.187 Y145.679 E11.95295
G1 X98.091 Y144.815 E12.04624
G1 X97.772 Y144.542 E12.07426
G1 X96.829 Y143.672 E12.15997
G1 X88.632 Y135.518 E12.93238
G1 X88.043 Y134.845 E12.99209
G1 X87.403 Y134.006 E13.06261
G1 X86.556 Y132.526 E13.17651
G1 X86.155 Y131.549 E13.24707
G1 X85.718 Y129.900 E13.36107
G1 X85.584 Y128.854 E13.43152
G1 X85.531 Y128.022 E13.48723
G1 X85.531 Y92.459 E15.86297
G1 X85.589 Y91.587 E15.92140
G1 X85.731 Y90.538 E15.99210
G1 X86.177 Y88.894 E16.10592
G1 X86.584 Y87.920 E16.17644
G1 X87.442 Y86.445 E16.29038
G1 X88.087 Y85.610 E16.36087
G1 X88.469 Y85.163 E16.40021
G1 E14.40021 F2400.00000
G92 E0
G1 X112.465 Y76.499 F7200.000
G1 E2.00000 F2400.00000
G1 F1080
G1 X113.468 Y76.534 E2.04704
G1 X114.472 Y76.634 E2.09432
G1 X115.466 Y76.798 E2.14148
G1 X115.811 Y76.878 E2.15807
G1 X109.016 Y76.878 E2.47640
G1 X108.391 Y77.022 E2.50644
G1 X107.607 Y77.257 E2.54481
G1 X117.218 Y77.257 E2.99511
G1 X118.274 Y77.636 E3.04767
G1 X106.550 Y77.636 E3.59695
G1 X105.690 Y78.014 E3.64098
G1 X119.137 Y78.014 E4.27098
G1 X119.879 Y78.393 E4.31000
G1 X104.947 Y78.393 E5.00956
G1 X104.594 Y78.580 E5.02826
G1 X104.283 Y78.772 E5.04537
G1 X120.540 Y78.772 E5.80699
G1 X121.144 Y79.151 E5.84038
G1 X103.676 Y79.151 E6.65872
G1 X103.145 Y79.530 E6.68931
G1 X121.682 Y79.530 E7.55779
G1 X122.176 Y79.908 E7.58694
G1 X102.647 Y79.908 E8.50188
G1 X102.182 Y80.287 E8.52998
G1 X122.647 Y80.287 E9.48877
G1 X123.062 Y80.666 E9.51509
G1 X101.763 Y80.666 E10.51295
G1 X101.355 Y81.045 E10.53902
G1 X123.465 Y81.045 E11.57487
G1 X123.830 Y81.424 E11.59950
G1 X100.990 Y81.424 E12.66954
G1 X100.638 Y81.803 E12.69375
G1 X124.185 Y81.803 E13.79691
G1 X124.505 Y82.181 E13.82015
G1 X100.318 Y82.181 E14.95331
G1 X100.010 Y82.560 E14.97619
G1 X124.814 Y82.560 E16.13824
G1 X125.096 Y82.939 E16.16037
G1 X99.728 Y82.939 E17.34886
G1 X99.455 Y83.318 E17.37071
G1 X125.369 Y83.318 E18.58475
G1 X125.618 Y83.697 E18.60600
G1 X99.206 Y83.697 E19.84338
G1 X98.966 Y84.076 E19.86440
G1 X125.858 Y84.076 E21.12427
G1 X126.080 Y84.454 E21.14484
G1 X98.746 Y84.454 E22.42545
G1 X98.536 Y84.833 E22.44574
G1 X126.287 Y84.833 E23.74584
G1 X126.483 Y85.212 E23.76584
G1 X98.339 Y85.212 E25.08437
G1 X98.160 Y85.591 E25.10400
G1 X126.663 Y85.591 E26.43933
G1 X126.836 Y85.970 E26.45884
G1 X97.988 Y85.970 E27.81033
G1 X97.831 Y86.348 E27.82954
G1 X126.994 Y86.348 E29.19578
G1 X127.140 Y86.727 E29.21480
G1 X97.682 Y86.727 E30.59487
G1 X97.555 Y87.106 E30.61360
G1 X127.271 Y87.106 E32.00578
G1 X127.392 Y87.485 E32.02441
G1 X97.431 Y87.485 E33.42809
G1 X97.308 Y87.864 E33.44674
G1 X127.514 Y87.864 E34.86186
G1 X127.616 Y88.243 E34.88024
G1 X97.210 Y88.243 E36.30475
G1 X97.129 Y88.565 E36.32032
G1 X96.124 Y88.429 E36.36782
G1 X95.076 Y88.564 E36.41731
G1 X94.935 Y88.621 E36.42444
G1 X127.708 Y88.621 E37.95981
G1 X127.798 Y89.000 E37.97805
G1 X94.053 Y89.000 E39.55898
G1 X93.556 Y89.379 E39.58826
G1 X127.870 Y89.379 E41.19584
G1 X127.939 Y89.758 E41.21388
G1 X93.141 Y89.758 E42.84413
G1 X92.849 Y90.137 E42.86655
G1 X127.989 Y90.137 E44.51283
G1 X128.038 Y90.516 E44.53073
G1 X92.583 Y90.516 E46.19177
G1 X92.425 Y90.894 E46.21100
G1 X128.073 Y90.894 E47.88109
G1 X128.099 Y91.273 E47.89888
G1 X92.266 Y91.273 E49.57763
G1 X92.208 Y91.414 E49.58478
G1 X92.175 Y91.652 E49.59603
G1 X128.113 Y91.652 E51.27968
G1 X128.129 Y92.031 E51.29744
G1 X92.124 Y92.031 E52.98423
G1 X92.073 Y92.410 E53.00214
G1 X128.126 Y92.410 E54.69121
G1 X128.123 Y92.788 E54.70896
G1 X92.108 Y92.788 E56.39619
G1 X92.157 Y93.167 E56.41409
G1 X128.100 Y93.167 E58.09797
G1 X128.074 Y93.546 E58.11576
G1 X92.217 Y93.546 E59.79563
G1 X92.372 Y93.925 E59.81481
G1 X128.037 Y93.925 E61.48570
G1 X127.989 Y94.304 E61.50359
G1 X92.528 Y94.304 E63.16492
G1 X92.602 Y94.484 E63.17407
G1 X92.753 Y94.683 E63.18574
G1 X127.937 Y94.683 E64.83408
G1 X127.870 Y95.061 E64.85210
G1 X93.042 Y95.061 E66.48380
G1 X93.242 Y95.324 E66.49927
G1 X93.392 Y95.440 E66.50818
G1 X127.797 Y95.440 E68.12002
G1 X127.709 Y95.819 E68.13824
G1 X93.883 Y95.819 E69.72298
G1 X94.077 Y95.969 E69.73449
G1 X94.624 Y96.198 E69.76226
G1 X127.614 Y96.198 E71.30781
G1 X127.516 Y96.577 E71.32615
G1 X97.310 Y96.577 E72.74125
G1 X97.432 Y96.956 E72.75989
G1 X127.393 Y96.956 E74.16355
G1 X127.269 Y97.334 E74.18222
G1 X97.553 Y97.334 E75.57440
G1 X97.684 Y97.713 E75.59317
G1 X127.141 Y97.713 E76.97325
G1 X126.992 Y98.092 E76.99232
G1 X97.830 Y98.092 E78.35855
G1 X97.988 Y98.471 E78.37777
G1 X126.836 Y98.471 E79.72927
G1 X126.663 Y98.850 E79.74877
G1 X98.161 Y98.850 E81.08408
G1 X98.341 Y99.229 E81.10372
G1 X126.484 Y99.229 E82.42220
G1 X126.288 Y99.607 E82.44219
G1 X98.537 Y99.607 E83.74227
G1 X98.744 Y99.986 E83.76250
G1 X126.078 Y99.986 E85.04306
G1 X125.857 Y100.365 E85.06359
G1 X98.967 Y100.365 E86.32341
G1 X99.206 Y100.744 E86.34440
G1 X125.617 Y100.744 E87.58176
G1 X125.368 Y101.123 E87.60299
G1 X99.455 Y101.123 E88.81700
G1 X99.728 Y101.501 E88.83887
G1 X125.096 Y101.501 E90.02735
G1 X124.814 Y101.880 E90.04948
G1 X100.010 Y101.880 E91.21153
G1 X100.319 Y102.259 E91.23444
G1 X124.505 Y102.259 E92.36755
G1 X124.185 Y102.638 E92.39079
G1 X100.639 Y102.638 E93.49389
G1 X100.994 Y103.017 E93.51821
G1 X123.834 Y103.017 E94.58824
G1 X123.468 Y103.396 E94.61291
G1 X101.359 Y103.396 E95.64872
G1 X101.762 Y103.774 E95.67464
G1 X123.061 Y103.774 E96.67247
G1 X122.641 Y104.153 E96.69895
G1 X102.176 Y104.153 E97.65772
G1 X102.648 Y104.532 E97.68606
G1 X122.177 Y104.532 E98.60099
G1 X121.679 Y104.911 E98.63029
G1 X103.142 Y104.911 E99.49875
G1 X103.681 Y105.290 E99.52960
G1 X121.147 Y105.290 E100.34790
G1 X120.540 Y105.669 E100.38144
G1 X104.284 Y105.669 E101.14300
G1 X104.946 Y106.047 E101.17872
G1 X119.877 Y106.047 E101.87821
G1 X119.133 Y106.426 E101.91729
G1 X105.687 Y106.426 E102.54725
G1 X106.550 Y106.805 E102.59140
G1 X118.272 Y106.805 E103.14059
G1 X117.215 Y107.184 E103.19320
G1 X107.607 Y107.184 E103.64332
G1 X108.376 Y107.415 E103.68092
G1 X109.016 Y107.563 E103.71169
G1 X115.807 Y107.563 E104.02987
G1 X115.430 Y107.649 E104.04798
G1 X114.414 Y107.813 E104.09619
G1 X113.391 Y107.911 E104.14438
G1 X112.359 Y107.941 E104.19271
G1 E102.19271 F2400.00000
G92 E0
G1 X112.465 Y112.059 F7200.000
G1 E2.00000 F2400.00000
G1 F1080
G1 X113.468 Y112.094 E2.04704
G1 X114.472 Y112.194 E2.09432
G1 X115.466 Y112.358 E2.14148
G1 X115.811 Y112.438 E2.15807
G1 X109.016 Y112.438 E2.47640
G1 X108.391 Y112.582 E2.50644
G1 X107.607 Y112.817 E2.54481
G1 X117.218 Y112.817 E2.99511
G1 X118.274 Y113.196 E3.04767
G1 X106.550 Y113.196 E3.59695
G1 X105.690 Y113.574 E3.64098
G1 X119.137 Y113.574 E4.27098
G1 X119.879 Y113.953 E4.31000
G1 X104.947 Y113.953 E5.00956
G1 X104.594 Y114.140 E5.02826
G1 X104.283 Y114.332 E5.04537
G1 X120.540 Y114.332 E5.80699
G1 X121.144 Y114.711 E5.84038
G1 X103.676 Y114.711 E6.65872
G1 X103.145 Y115.090 E6.68931
G1 X121.682 Y115.090 E7.55779
G1 X122.176 Y115.469 E7.58694
G1 X102.647 Y115.469 E8.50188
G1 X102.182 Y115.847 E8.52998
G1 X122.647 Y115.847 E9.48877
G1 X123.062 Y116.226 E9.51509
G1 X101.763 Y116.226 E10.51295
G1 X101.355 Y116.605 E10.53902
G1 X123.465 Y116.605 E11.57487
G1 X123.830 Y116.984 E11.59950
G1 X100.990 Y116.984 E12.66954
G1 X100.638 Y117.363 E12.69375
G1 X124.185 Y117.363 E13.79691
G1 X124.505 Y117.742 E13.82015
G1 X100.318 Y117.742 E14.95331
G1 X100.010 Y118.120 E14.97619
G1 X124.814 Y118.120 E16.13824
G1 X125.096 Y118.499 E16.16037
G1 X99.728 Y118.499 E17.34886
G1 X99.455 Y118.878 E17.37071
G1 X125.369 Y118.878 E18.58475
G1 X125.618 Y119.257 E18.60600
G1 X99.206 Y119.257 E19.84338
G1 X98.966 Y119.636 E19.86440
G1 X125.858 Y119.636 E21.12427
G1 X126.080 Y120.014 E21.14484
G1 X98.746 Y120.014 E22.42545
G1 X98.536 Y120.393 E22.44574
G1 X126.287 Y120.393 E23.74584
G1 X126.483 Y120.772 E23.76584
G1 X98.339 Y120.772 E25.08437
G1 X98.160 Y121.151 E25.10400
G1 X126.663 Y121.151 E26.43933
G1 X126.836 Y121.530 E26.45884
G1 X97.988 Y121.530 E27.81033
G1 X97.831 Y121.909 E27.82954
G1 X126.994 Y121.909 E29.19578
G1 X127.140 Y122.287 E29.21480
G1 X97.682 Y122.287 E30.59487
G1 X97.555 Y122.666 E30.61360
G1 X127.271 Y122.666 E32.00578
G1 X127.392 Y123.045 E32.02441
G1 X97.431 Y123.045 E33.42809
G1 X97.308 Y123.424 E33.44674
G1 X127.514 Y123.424 E34.86186
G1 X127.616 Y123.803 E34.88024
G1 X97.210 Y123.803 E36.30475
G1 X97.129 Y124.125 E36.32032
G1 X96.124 Y123.989 E36.36782
G1 X95.076 Y124.124 E36.41731
G1 X94.935 Y124.182 E36.42444
G1 X127.708 Y124.182 E37.95981
G1 X127.798 Y124.560 E37.97805
G1 X94.053 Y124.560 E39.55898
G1 X93.556 Y124.939 E39.58826
G1 X127.870 Y124.939 E41.19584
G1 X127.939 Y125.318 E41.21388
G1 X93.141 Y125.318 E42.84413
G1 X92.849 Y125.697 E42.86655
G1 X127.989 Y125.697 E44.51283
G1 X128.038 Y126.076 E44.53073
G1 X92.583 Y126.076 E46.19177
G1 X92.425 Y126.454 E46.21100
G1 X128.073 Y126.454 E47.88109
G1 X128.099 Y126.833 E47.89888
G1 X92.266 Y126.833 E49.57763
G1 X92.208 Y126.974 E49.58478
G1 X92.175 Y127.212 E49.59603
G1 X128.113 Y127.212 E51.27968
G1 X128.129 Y127.591 E51.29744
G1 X92.124 Y127.591 E52.98423
G1 X92.073 Y127.970 E53.00214
G1 X128.126 Y127.970 E54.69121
G1 X128.123 Y128.349 E54.70896
G1 X92.108 Y128.349 E56.39619
G1 X92.157 Y128.727 E56.41409
G1 X128.100 Y128.727 E58.09797
G1 X128.074 Y129.106 E58.11576
G1 X92.217 Y129.106 E59.79563
G1 X92.372 Y129.485 E59.81481
G1 X128.037 Y129.485 E61.48570
G1 X127.989 Y129.864 E61.50359
G1 X92.528 Y129.864 E63.16492
G1 X92.602 Y130.045 E63.17407
G1 X92.753 Y130.243 E63.18574
G1 X127.937 Y130.243 E64.83408
G1 X127.870 Y130.622 E64.85210
G1 X93.042 Y130.622 E66.48380
G1 X93.242 Y130.884 E66.49927
G1 X93.392 Y131.000 E66.50818
G1 X127.797 Y131.000 E68.12002
G1 X127.709 Y131.379 E68.13824
G1 X93.883 Y131.379 E69.72298
G1 X94.077 Y131.529 E69.73449
G1 X94.624 Y131.758 E69.76226
G1 X127.614 Y131.758 E71.30781
G1 X127.516 Y132.137 E71.32615
G1 X97.310 Y132.137 E72.74125
G1 X97.432 Y132.516 E72.75989
G1 X127.393 Y132.516 E74.16355
G1 X127.269 Y132.894 E74.18222
G1 X97.553 Y132.894 E75.57440
G1 X97.684 Y133.273 E75.59317
G1 X127.141 Y133.273 E76.97325
G1 X126.992 Y133.652 E76.99232
G1 X97.830 Y133.652 E78.35855
G1 X97.988 Y134.031 E78.37777
G1 X126.836 Y134.031 E79.72927
G1 X126.663 Y134.410 E79.74877
G1 X98.161 Y134.410 E81.08408
G1 X98.341 Y134.789 E81.10372
G1 X126.484 Y134.789 E82.42220
G1 X126.288 Y135.167 E82.44219
G1 X98.537 Y135.167 E83.74227
G1 X98.744 Y135.546 E83.76250
G1 X126.078 Y135.546 E85.04306
G1 X125.857 Y135.925 E85.06359
G1 X98.967 Y135.925 E86.32341
G1 X99.206 Y136.304 E86.34440
G1 X125.617 Y136.304 E87.58176
G1 X125.368 Y136.683 E87.60299
G1 X99.455 Y136.683 E88.81700
G1 X99.728 Y137.062 E88.83887
G1 X125.096 Y137.062 E90.02735
G1 X124.814 Y137.440 E90.04948
G1 X100.010 Y137.440 E91.21153
G1 X100.319 Y137.819 E91.23444
G1 X124.505 Y137.819 E92.36755
G1 X124.185 Y138.198 E92.39079
G1 X100.639 Y138.198 E93.49389
G1 X100.994 Y138.577 E93.51821
G1 X123.834 Y138.577 E94.58824
G1 X123.468 Y138.956 E94.61291
G1 X101.359 Y138.956 E95.64872
G1 X101.762 Y139.335 E95.67464
G1 X123.061 Y139.335 E96.67247
G1 X122.641 Y139.713 E96.69895
G1 X102.176 Y139.713 E97.65772
G1 X102.648 Y140.092 E97.68606
G1 X122.177 Y140.092 E98.60099
G1 X121.679 Y140.471 E98.63029
G1 X103.142 Y140.471 E99.49875
G1 X103.681 Y140.850 E99.52960
G1 X121.147 Y140.850 E100.34790
G1 X120.540 Y141.229 E100.38144
G1 X104.284 Y141.229 E101.14300
G1 X104.946 Y141.607 E101.17872
G1 X119.877 Y141.607 E101.87821
G1 X119.133 Y141.986 E101.91729
G1 X105.687 Y141.986 E102.54725
G1 X106.550 Y142.365 E102.59140
G1 X118.272 Y142.365 E103.14059
G1 X117.215 Y142.744 E103.19320
G1 X107.607 Y142.744 E103.64332
G1 X108.376 Y142.975 E103.68092
G1 X109.016 Y143.123 E103.71169
G1 X115.807 Y143.123 E104.02987
G1 X115.430 Y143.209 E104.04798
G1 X114.414 Y143.373 E104.09619
G1 X113.391 Y143.471 E104.14438
G1 X112.359 Y143.502 E104.19271
M104 S240 ; set temperature
M140 S100 ; set bed temperature
G1 Z0.600 F7200.000
G1 E102.19271 F2400.00000
G92 E0
G1 X128.129 Y91.976 F7200.000
G1 E2.00000 F2400.00000
G1 F3600
G1 X128.095 Y91.141 E2.03915
G1 X128.027 Y90.415 E2.07330
G1 X127.940 Y89.765 E2.10401
G1 X127.753 Y88.808 E2.14969
G1 X127.753 Y95.643 E2.46989
G1 X127.543 Y96.480 E2.51030
G1 X127.378 Y97.002 E2.53596
G1 X127.378 Y87.440 E2.98394
G1 X127.220 Y86.945 E3.00825
G1 X127.002 Y86.370 E3.03705
G1 X127.002 Y98.068 E3.58506
G1 X126.626 Y98.928 E3.62903
G1 X126.626 Y85.512 E4.25756
G1 X126.251 Y84.767 E4.29662
G1 X126.251 Y99.674 E4.99498
G1 X125.875 Y100.335 E5.03062
G1 X125.875 Y84.103 E5.79111
G1 X125.499 Y83.511 E5.82397
G1 X125.499 Y100.927 E6.63994
G1 X125.124 Y101.464 E6.67062
G1 X125.124 Y82.977 E7.53670
G1 X124.748 Y82.475 E7.56608
G1 X124.748 Y101.964 E8.47912
G1 X124.373 Y102.417 E8.50668
G1 X124.373 Y82.022 E9.46217
G1 X123.997 Y81.597 E9.48873
