; generated by Slic3r 1.3.0 on 2019-03-17 at 18:21:35

; external perimeters extrusion width = 0.44mm (0.84mm^3/s)
; perimeters extrusion width = 0.56mm (2.15mm^3/s)
; infill extrusion width = 0.50mm (2.87mm^3/s)
; solid infill extrusion width = 0.56mm (1.08mm^3/s)
; top infill extrusion width = 0.56mm (0.81mm^3/s)
; support material extrusion width = 0.44mm (2.51mm^3/s)

M107
M190 S115 ; set bed temperature and wait for it to be reached
M104 S250 ; set temperature
G28 ; home all axes
G1 Z5 F5000 ; lift nozzle

; Filament gcode

M109 S250 ; set temperature and wait for it to be reached
G21 ; set units to millimeters
G90 ; use absolute coordinates
M82 ; use absolute distances for extrusion
G92 E0
G1 Z0.300 F7200.000
G1 E-2.00000 F2400.00000
G92 E0
G1 X90.601 Y89.335 F7200.000
G1 E2.00000 F2400.00000
G1 F1800
G1 X92.145 Y87.796 E2.14559
G1 X92.624 Y87.367 E2.18858
G1 X94.519 Y85.833 E2.35144
G1 X95.072 Y85.431 E2.39713
G1 X96.779 Y84.323 E2.53310
G1 X97.662 Y83.795 E2.60182
G1 X99.936 Y82.623 E2.77275
G1 X100.561 Y82.344 E2.81844
G1 X102.867 Y81.459 E2.98343
G1 X103.518 Y81.248 E3.02914
G1 X105.903 Y80.609 E3.19412
G1 X106.572 Y80.467 E3.23982
G1 X107.857 Y80.277 E3.32656
G1 X112.158 Y79.880 E3.61512
G1 X112.842 Y79.880 E3.66083
G1 X115.308 Y80.009 E3.82582
G1 X115.989 Y80.080 E3.87151
G1 X117.556 Y80.329 E3.97756
G1 X119.666 Y80.770 E4.12155
G1 X121.400 Y81.226 E4.24130
G1 X122.000 Y81.418 E4.28339
G1 X123.059 Y81.815 E4.35894
G1 X124.042 Y82.192 E4.42931
G1 X125.221 Y82.712 E4.51539
G1 X127.264 Y83.744 E4.66828
G1 X127.856 Y84.086 E4.71398
G1 X129.989 Y85.476 E4.88406
G1 X130.511 Y85.857 E4.92722
G1 X132.400 Y87.387 E5.08964
G1 X132.909 Y87.845 E5.13534
G1 X134.655 Y89.591 E5.30033
G1 X135.113 Y90.100 E5.34602
G1 X136.820 Y92.228 E5.52829
G1 X137.127 Y92.662 E5.56381
G1 X138.353 Y94.549 E5.71416
G1 X138.612 Y94.984 E5.74793
G1 X139.862 Y97.407 E5.93010
G1 X140.120 Y97.979 E5.97204
G1 X141.014 Y100.297 E6.13797
G1 X141.190 Y100.821 E6.17493
G1 X141.918 Y103.538 E6.36282
G1 X142.063 Y104.259 E6.41197
G1 X142.424 Y106.546 E6.56665
G1 X142.492 Y107.204 E6.61085
G1 X142.620 Y109.658 E6.77499
G1 X142.620 Y110.342 E6.82071
G1 X142.492 Y112.796 E6.98487
G1 X142.424 Y113.454 E7.02906
G1 X142.063 Y115.741 E7.18374
G1 X141.840 Y116.788 E7.25522
G1 X141.299 Y118.801 E7.39452
G1 X141.014 Y119.703 E7.45773
G1 X140.120 Y122.021 E7.62365
G1 X139.862 Y122.593 E7.66560
G1 X138.612 Y125.016 E7.84777
G1 X138.353 Y125.451 E7.88154
G1 X137.127 Y127.338 E8.03190
G1 X136.820 Y127.772 E8.06741
G1 X135.113 Y129.900 E8.24967
G1 X134.655 Y130.409 E8.29537
G1 X132.909 Y132.155 E8.46036
G1 X132.400 Y132.613 E8.50605
G1 X130.511 Y134.143 E8.66847
G1 X129.989 Y134.524 E8.71164
G1 X127.856 Y135.914 E8.88171
G1 X127.264 Y136.256 E8.92741
G1 X125.506 Y137.152 E9.05924
G1 X124.383 Y137.666 E9.14175
G1 X122.000 Y138.582 E9.31231
G1 X121.400 Y138.774 E9.35438
G1 X119.666 Y139.230 E9.47415
G1 X117.901 Y139.607 E9.59474
G1 X115.989 Y139.920 E9.72418
G1 X115.309 Y139.991 E9.76986
G1 X112.844 Y140.120 E9.93473
G1 X112.498 Y140.129 E9.95785
G1 X111.889 Y140.101 E9.99859
G1 X107.444 Y139.671 E10.29694
G1 X106.572 Y139.533 E10.35588
G1 X105.903 Y139.391 E10.40157
G1 X103.518 Y138.752 E10.56656
G1 X102.867 Y138.541 E10.61227
G1 X100.561 Y137.656 E10.77725
G1 X99.936 Y137.377 E10.82295
G1 X98.012 Y136.397 E10.96721
G1 X97.022 Y135.827 E11.04356
G1 X95.072 Y134.569 E11.19856
G1 X94.519 Y134.167 E11.24426
G1 X92.624 Y132.633 E11.40711
G1 X92.145 Y132.204 E11.45011
G1 X90.601 Y130.665 E11.59570
G1 X90.104 Y130.140 E11.64402
G1 X89.789 Y129.779 E11.67600
G1 X88.333 Y127.981 E11.83057
G1 X79.803 Y116.793 E12.77046
G1 X79.521 Y116.391 E12.80326
G1 X79.276 Y116.014 E12.83334
G1 X78.936 Y115.425 E12.87873
G1 X78.698 Y114.960 E12.91361
G1 X78.420 Y114.335 E12.95930
G1 X78.192 Y113.716 E13.00338
G1 X77.892 Y112.710 E13.07351
G1 X77.750 Y112.042 E13.11917
G1 X77.670 Y111.535 E13.15344
G1 X77.581 Y110.531 E13.22078
G1 X77.572 Y109.811 E13.26885
G1 X77.598 Y109.145 E13.31340
G1 X77.670 Y108.465 E13.35908
G1 X77.750 Y107.958 E13.39336
G1 X77.892 Y107.289 E13.43905
G1 X78.192 Y106.285 E13.50907
G1 X78.421 Y105.663 E13.55335
G1 X78.741 Y104.957 E13.60514
G1 X78.936 Y104.575 E13.63378
G1 X79.276 Y103.986 E13.67918
G1 X79.803 Y103.207 E13.74204
G1 X88.214 Y92.171 E14.66905
G1 X89.789 Y90.221 E14.83651
G1 X90.560 Y89.378 E14.91279
G1 E12.91279 F2400.00000
G92 E0
G1 X112.502 Y86.406 F7200.000
G1 E2.00000 F2400.00000
G1 F1800
G1 X114.966 Y86.536 E2.11561
G1 X116.534 Y86.784 E2.18997
G1 X108.466 Y86.784 E2.56796
G1 X107.595 Y86.922 E2.60929
G1 X106.701 Y87.161 E2.65265
G1 X118.299 Y87.161 E3.19604
G1 X119.708 Y87.539 E3.26437
G1 X105.292 Y87.539 E3.93978
G1 X104.283 Y87.916 E3.99022
G1 X120.717 Y87.916 E4.76011
G1 X121.700 Y88.294 E4.80946
G1 X103.300 Y88.294 E5.67150
G1 X102.904 Y88.446 E5.69139
G1 X102.461 Y88.671 E5.71464
G1 X122.539 Y88.671 E6.65526
G1 X123.280 Y89.049 E6.69421
G1 X101.720 Y89.049 E7.70425
G1 X100.980 Y89.426 E7.74320
G1 X124.020 Y89.426 E8.82266
G1 X124.297 Y89.567 E8.83719
G1 X124.661 Y89.804 E8.85755
G1 X100.339 Y89.804 E9.99705
G1 X99.757 Y90.181 E10.02952
G1 X125.243 Y90.181 E11.22348
G1 X125.824 Y90.559 E11.25596
G1 X99.176 Y90.559 E12.50439
G1 X98.602 Y90.936 E12.53657
G1 X126.398 Y90.936 E13.83879
G1 X126.864 Y91.314 E13.86689
G1 X98.136 Y91.314 E15.21278
G1 X97.670 Y91.691 E15.24088
G1 X127.330 Y91.691 E16.63045
G1 X127.796 Y92.069 E16.65855
G1 X97.204 Y92.069 E18.09180
G1 X96.737 Y92.446 E18.11991
G1 X128.263 Y92.446 E19.59683
G1 X128.645 Y92.824 E19.62200
G1 X96.355 Y92.824 E21.13474
G1 X95.978 Y93.201 E21.15975
G1 X129.022 Y93.201 E22.70786
G1 X129.400 Y93.579 E22.73287
G1 X95.600 Y93.579 E24.31636
G1 X95.223 Y93.956 E24.34137
G1 X129.777 Y93.956 E25.96022
G1 X130.132 Y94.334 E25.98448
G1 X94.868 Y94.334 E27.63655
G1 X94.563 Y94.711 E27.65931
G1 X130.437 Y94.711 E29.34002
G1 X130.743 Y95.089 E29.36277
G1 X94.257 Y95.089 E31.07213
G1 X93.951 Y95.466 E31.09488
G1 X131.049 Y95.466 E32.83288
G1 X131.354 Y95.844 E32.85564
G1 X93.645 Y95.844 E34.62228
G1 X93.354 Y96.221 E34.64462
G1 X131.646 Y96.221 E36.43856
G1 X131.891 Y96.599 E36.45965
G1 X93.109 Y96.599 E38.27656
G1 X92.864 Y96.976 E38.29765
G1 X132.136 Y96.976 E40.13753
G1 X132.381 Y97.354 E40.15862
G1 X92.619 Y97.354 E42.02147
G1 X92.374 Y97.731 E42.04256
G1 X132.626 Y97.731 E43.92838
G1 X132.872 Y98.109 E43.94946
G1 X92.128 Y98.109 E45.85826
G1 X91.923 Y98.486 E45.87839
G1 X133.077 Y98.486 E47.80644
G1 X133.269 Y98.864 E47.82629
G1 X91.731 Y98.864 E49.77236
G1 X91.538 Y99.241 E49.79221
G1 X133.462 Y99.241 E51.75631
G1 X133.654 Y99.619 E51.77616
G1 X91.346 Y99.619 E53.75828
G1 X91.153 Y99.996 E53.77812
G1 X133.847 Y99.996 E55.77826
G1 X134.039 Y100.374 E55.79811
G1 X90.961 Y100.374 E57.81628
G1 X90.812 Y100.751 E57.83528
G1 X134.188 Y100.751 E59.86737
G1 X134.332 Y101.129 E59.88632
G1 X90.668 Y101.129 E61.93199
G1 X90.523 Y101.506 E61.95093
G1 X134.477 Y101.506 E64.01018
G1 X134.622 Y101.884 E64.02912
G1 X90.378 Y101.884 E66.10194
G1 X90.233 Y102.261 E66.12089
G1 X134.767 Y102.261 E68.20729
G1 X134.912 Y102.639 E68.22623
G1 X90.088 Y102.639 E70.32621
G1 X89.979 Y103.016 E70.34462
G1 X135.021 Y103.016 E72.45484
G1 X135.122 Y103.394 E72.47315
G1 X89.877 Y103.394 E74.59285
G1 X89.776 Y103.771 E74.61116
G1 X135.224 Y103.771 E76.74033
G1 X135.325 Y104.149 E76.75864
G1 X89.675 Y104.149 E78.89729
G1 X89.574 Y104.526 E78.91560
G1 X135.426 Y104.526 E81.06373
G1 X135.527 Y104.904 E81.08204
G1 X89.473 Y104.904 E83.23965
G1 X89.415 Y105.120 E83.25012
G1 X89.000 Y105.098 E83.26960
G1 X88.488 Y105.125 E83.29364
G1 X87.981 Y105.205 E83.31767
G1 X87.697 Y105.281 E83.33145
G1 X135.608 Y105.281 E85.57604
G1 X135.668 Y105.659 E85.59395
G1 X86.737 Y105.659 E87.88629
G1 X86.549 Y105.755 E87.89620
G1 X86.116 Y106.036 E87.92039
G1 X135.727 Y106.036 E90.24464
G1 X135.787 Y106.414 E90.26255
G1 X85.663 Y106.414 E92.61081
G1 X85.299 Y106.791 E92.63538
G1 X135.847 Y106.791 E95.00349
G1 X135.907 Y107.169 E95.02140
G1 X85.002 Y107.169 E97.40626
G1 X84.757 Y107.546 E97.42735
G1 X135.965 Y107.546 E99.82644
G1 X135.985 Y107.924 E99.84415
G1 X84.564 Y107.924 E102.25319
G1 X84.409 Y108.301 E102.27232
G1 X136.005 Y108.301 E104.68956
G1 X136.025 Y108.679 E104.70727
G1 X84.286 Y108.679 E107.13118
G1 X84.193 Y109.056 E107.14940
G1 X136.044 Y109.056 E109.57859
G1 X136.064 Y109.434 E109.59629
G1 X84.133 Y109.434 E112.02921
G1 X84.108 Y109.811 E112.04694
G1 X136.084 Y109.811 E114.48198
G1 X136.084 Y110.189 E114.49966
G1 X84.108 Y110.189 E116.93470
G1 X84.133 Y110.566 E116.95243
G1 X136.064 Y110.566 E119.38535
G1 X136.044 Y110.944 E119.40306
G1 X84.193 Y110.944 E121.83224
G1 X84.286 Y111.321 E121.85046
G1 X136.025 Y111.321 E124.27437
G1 X136.005 Y111.699 E124.29208
G1 X84.409 Y111.699 E126.70932
G1 X84.564 Y112.076 E126.72845
G1 X135.985 Y112.076 E129.13749
G1 X135.965 Y112.454 E129.15520
G1 X84.757 Y112.454 E131.55429
G1 X85.002 Y112.831 E131.57537
G1 X135.907 Y112.831 E133.96024
G1 X135.847 Y113.209 E133.97814
G1 X85.299 Y113.209 E136.34626
G1 X85.663 Y113.586 E136.37083
G1 X135.787 Y113.586 E138.71909
G1 X135.727 Y113.964 E138.73700
G1 X86.116 Y113.964 E141.06124
G1 X86.549 Y114.245 E141.08543
G1 X86.737 Y114.341 E141.09534
G1 X135.668 Y114.341 E143.38768
G1 X135.608 Y114.719 E143.40559
G1 X87.697 Y114.719 E145.65018
G1 X87.981 Y114.795 E145.66395
G1 X88.488 Y114.875 E145.68799
G1 X89.000 Y114.902 E145.71203
G1 X89.415 Y114.880 E145.73150
G1 X89.473 Y115.096 E145.74198
G1 X135.527 Y115.096 E147.89959
G1 X135.426 Y115.474 E147.91790
G1 X89.574 Y115.474 E150.06602
G1 X89.675 Y115.851 E150.08433
G1 X135.325 Y115.851 E152.22298
G1 X135.224 Y116.229 E152.24129
G1 X89.776 Y116.229 E154.37047
G1 X89.878 Y116.606 E154.38878
G1 X135.122 Y116.606 E156.50847
G1 X135.021 Y116.984 E156.52678
G1 X89.979 Y116.984 E158.63700
G1 X90.088 Y117.361 E158.65541
G1 X134.912 Y117.361 E160.75539
G1 X134.767 Y117.739 E160.77434
G1 X90.233 Y117.739 E162.86074
G1 X90.378 Y118.116 E162.87968
G1 X134.622 Y118.116 E164.95251
G1 X134.477 Y118.494 E164.97145
G1 X90.523 Y118.494 E167.03069
G1 X90.668 Y118.871 E167.04964
G1 X134.332 Y118.871 E169.09531
G1 X134.188 Y119.249 E169.11425
G1 X90.812 Y119.249 E171.14634
G1 X90.961 Y119.626 E171.16535
G1 X134.039 Y119.626 E173.18351
G1 X133.847 Y120.004 E173.20336
G1 X91.153 Y120.004 E175.20350
G1 X91.346 Y120.381 E175.22335
G1 X133.654 Y120.381 E177.20546
G1 X133.462 Y120.759 E177.22531
G1 X91.538 Y120.759 E179.18941
G1 X91.731 Y121.136 E179.20926
G1 X133.269 Y121.136 E181.15533
G1 X133.077 Y121.514 E181.17518
G1 X91.923 Y121.514 E183.10323
G1 X92.128 Y121.891 E183.12336
G1 X132.872 Y121.891 E185.03215
G1 X132.626 Y122.269 E185.05324
G1 X92.374 Y122.269 E186.93906
G1 X92.619 Y122.646 E186.96015
G1 X132.381 Y122.646 E188.82300
G1 X132.136 Y123.024 E188.84409
G1 X92.864 Y123.024 E190.68397
G1 X93.109 Y123.401 E190.70506
G1 X131.891 Y123.401 E192.52197
G1 X131.646 Y123.779 E192.54305
G1 X93.354 Y123.779 E194.33699
G1 X93.646 Y124.156 E194.35933
G1 X131.354 Y124.156 E196.12597
G1 X131.049 Y124.534 E196.14873
G1 X93.951 Y124.534 E197.88673
G1 X94.257 Y124.911 E197.90949
G1 X130.743 Y124.911 E199.61884
G1 X130.437 Y125.289 E199.64160
G1 X94.563 Y125.289 E201.32230
G1 X94.868 Y125.666 E201.34506
G1 X130.132 Y125.666 E202.99713
G1 X129.777 Y126.044 E203.02139
G1 X95.223 Y126.044 E204.64024
G1 X95.600 Y126.421 E204.66525
G1 X129.400 Y126.421 E206.24873
G1 X129.022 Y126.799 E206.27374
G1 X95.978 Y126.799 E207.82185
G1 X96.355 Y127.176 E207.84686
G1 X128.645 Y127.176 E209.35960
G1 X128.263 Y127.554 E209.38477
G1 X96.737 Y127.554 E210.86170
G1 X97.204 Y127.931 E210.88980
G1 X127.796 Y127.931 E212.32305
G1 X127.330 Y128.309 E212.35115
G1 X97.670 Y128.309 E213.74072
G1 X98.136 Y128.686 E213.76882
G1 X126.864 Y128.686 E215.11471
G1 X126.398 Y129.064 E215.14281
G1 X98.602 Y129.064 E216.44502
G1 X99.176 Y129.441 E216.47721
G1 X125.824 Y129.441 E217.72564
G1 X125.243 Y129.819 E217.75811
G1 X99.757 Y129.819 E218.95208
G1 X100.339 Y130.196 E218.98455
G1 X124.661 Y130.196 E220.12405
G1 X124.297 Y130.433 E220.14440
G1 X124.020 Y130.574 E220.15894
G1 X100.980 Y130.574 E221.23839
G1 X101.720 Y130.951 E221.27735
G1 X123.280 Y130.951 E222.28738
G1 X122.539 Y131.329 E222.32633
G1 X102.461 Y131.329 E223.26694
G1 X102.904 Y131.554 E223.29020
G1 X103.300 Y131.706 E223.31009
G1 X121.700 Y131.706 E224.17212
G1 X120.717 Y132.084 E224.22147
G1 X104.283 Y132.084 E224.99136
G1 X105.292 Y132.461 E225.04180
G1 X119.708 Y132.461 E225.71720
G1 X118.299 Y132.839 E225.78554
G1 X106.701 Y132.839 E226.32893
G1 X107.595 Y133.078 E226.37228
G1 X108.466 Y133.216 E226.41361
G1 X116.534 Y133.216 E226.79160
G1 X114.966 Y133.464 E226.86596
G1 X112.498 Y133.594 E226.98175
M104 S245 ; set temperature
M140 S104 ; set bed temperature
G1 Z0.900 F7200.000
G1 E224.98175 F2400.00000
G92 E0
G1 X90.683 Y112.254 F7200.000
G1 E2.00000 F2400.00000

G1 F2400
G1 X89.853 Y112.624 E2.04749
G1 X89.303 Y112.741 E2.07686
G1 X88.985 Y112.758 E2.09348
G1 X88.426 Y112.699 E2.12284
G1 X87.878 Y112.521 E2.15298
G1 X87.382 Y112.234 E2.18290
G1 X87.038 Y111.934 E2.20674
G1 X86.765 Y111.616 E2.22863
G1 X86.479 Y111.122 E2.25844
G1 X86.301 Y110.574 E2.28858
G1 X86.242 Y110.015 E2.31793
G1 X86.259 Y109.697 E2.33456
G1 X86.376 Y109.147 E2.36392
G1 X86.611 Y108.620 E2.39405
G1 X86.950 Y108.154 E2.42419
G1 X87.378 Y107.768 E2.45432
G1 X87.878 Y107.479 E2.48446
G1 X88.423 Y107.302 E2.51438
G1 X88.876 Y107.248 E2.53822
G1 X89.279 Y107.257 E2.55933
G1 X89.588 Y107.306 E2.57564
G1 X90.108 Y107.475 E2.60422
G1 X90.682 Y107.767 E2.63786
G1 X90.565 Y110.000 E2.75467
G1 X90.680 Y112.194 E2.86945

G1 X90.327 Y112.036 F7200.000

G1 F2400
G1 X89.746 Y112.295 E2.90270
G1 X89.258 Y112.399 E2.92876
G1 X88.994 Y112.412 E2.94255
G1 X88.498 Y112.360 E2.96861
G1 X88.019 Y112.204 E2.99496
G1 X87.583 Y111.953 E3.02123
G1 X87.283 Y111.691 E3.04205
G1 X87.047 Y111.416 E3.06098
G1 X86.796 Y110.981 E3.08721
G1 X86.640 Y110.502 E3.11356
G1 X86.588 Y110.006 E3.13961
G1 X86.601 Y109.742 E3.15341
G1 X86.705 Y109.254 E3.17946
G1 X86.910 Y108.793 E3.20582
G1 X87.207 Y108.385 E3.23217
G1 X87.582 Y108.048 E3.25853
G1 X88.019 Y107.796 E3.28489
G1 X88.497 Y107.640 E3.31116
G1 X88.892 Y107.593 E3.33197
G1 X89.249 Y107.601 E3.35060
G1 X89.507 Y107.641 E3.36427
G1 X89.976 Y107.794 E3.39002
G1 X90.327 Y107.972 E3.41057
G1 X90.220 Y110.000 E3.51665
G1 X90.324 Y111.976 E3.62002

G1 X91.004 Y112.000 F7200.000

G1 F2400
G1 X90.900 Y110.000 E3.72467
G1 X91.026 Y107.581 E3.85121
G1 X91.043 Y107.586 E3.85210
G1 X91.372 Y105.509 E3.96198
G1 X91.957 Y103.325 E4.08010
G1 X92.767 Y101.214 E4.19822
G1 X93.793 Y99.200 E4.31635
G1 X95.025 Y97.304 E4.43447
G1 X96.448 Y95.547 E4.55259
G1 X98.047 Y93.948 E4.67072
G1 X99.804 Y92.525 E4.78884
G1 X101.700 Y91.293 E4.90697
G1 X103.714 Y90.267 E5.02509
G1 X105.825 Y89.457 E5.14321
G1 X108.009 Y88.872 E5.26134
G1 X110.240 Y88.518 E5.37937
G1 X112.589 Y88.404 E5.50220
G1 X114.758 Y88.518 E5.61568
G1 X116.991 Y88.872 E5.73381
G1 X119.175 Y89.457 E5.85193
G1 X121.286 Y90.267 E5.97005
G1 X123.300 Y91.293 E6.08818
G1 X125.196 Y92.525 E6.20630
G1 X126.953 Y93.948 E6.32442
G1 X128.552 Y95.547 E6.44255
G1 X129.975 Y97.304 E6.56067
G1 X131.207 Y99.200 E6.67880
G1 X132.233 Y101.214 E6.79692
G1 X133.011 Y103.242 E6.91040
G1 X133.629 Y105.511 E7.03323
G1 X133.982 Y107.742 E7.15126
G1 X134.100 Y110.000 E7.26939
G1 X133.982 Y112.258 E7.38751
G1 X133.628 Y114.491 E7.50564
G1 X133.043 Y116.675 E7.62376
G1 X132.233 Y118.786 E7.74188
G1 X131.207 Y120.800 E7.86001
G1 X129.975 Y122.696 E7.97813
G1 X128.552 Y124.453 E8.09625
G1 X126.953 Y126.052 E8.21438
G1 X125.196 Y127.475 E8.33250
G1 X123.300 Y128.707 E8.45063
G1 X121.286 Y129.733 E8.56875
G1 X119.175 Y130.543 E8.68687
G1 X116.991 Y131.128 E8.80500
G1 X114.758 Y131.482 E8.92312
G1 X112.500 Y131.600 E9.04124
G1 X110.242 Y131.482 E9.15937
G1 X108.009 Y131.128 E9.27749
G1 X105.825 Y130.543 E9.39561
G1 X103.714 Y129.733 E9.51374
G1 X101.700 Y128.707 E9.63186
G1 X99.804 Y127.475 E9.74999
G1 X98.047 Y126.052 E9.86811
G1 X96.448 Y124.453 E9.98624
