; generated by Slic3r 1.3.0 on 2019-03-21 at 14:30:58

; external perimeters extrusion width = 0.44mm (0.63mm^3/s)
; perimeters extrusion width = 0.56mm (1.62mm^3/s)
; infill extrusion width = 0.50mm (2.87mm^3/s)
; solid infill extrusion width = 0.56mm (1.08mm^3/s)
; top infill extrusion width = 0.56mm (0.81mm^3/s)
; support material extrusion width = 0.44mm (2.51mm^3/s)

M107
M190 S115 ; set bed temperature and wait for it to be reached
M104 S245 ; set temperature
G28 ; home all axes
G1 Z5 F5000 ; lift nozzle

; Filament gcode

M109 S245 ; set temperature and wait for it to be reached
G21 ; set units to millimeters
G90 ; use absolute coordinates
M82 ; use absolute distances for extrusion
G92 E0
G1 Z0.300 F7800.000
G1 E-2.00000 F2400.00000
G92 E0
G1 X90.403 Y89.533 F7800.000
G1 E2.00000 F2400.00000
G1 F900
G1 X92.091 Y87.845 E2.15947
G1 X92.600 Y87.387 E2.20516
G1 X94.519 Y85.833 E2.37015
G1 X95.072 Y85.431 E2.41585
G1 X97.117 Y84.103 E2.57872
G1 X97.653 Y83.790 E2.62018
G1 X99.936 Y82.623 E2.79152
G1 X100.561 Y82.344 E2.83721
G1 X102.868 Y81.459 E3.00226
G1 X103.518 Y81.248 E3.04791
G1 X105.903 Y80.609 E3.21289
G1 X106.572 Y80.467 E3.25859
G1 X109.184 Y80.061 E3.43517
G1 X109.754 Y80.006 E3.47341
G1 X112.158 Y79.880 E3.63423
G1 X112.842 Y79.880 E3.67994
G1 X115.308 Y80.009 E3.84493
G1 X115.989 Y80.080 E3.89062
G1 X118.277 Y80.443 E4.04541
G1 X119.323 Y80.669 E4.11690
G1 X121.400 Y81.226 E4.26053
G1 X122.234 Y81.498 E4.31919
G1 X124.217 Y82.260 E4.46111
G1 X125.120 Y82.651 E4.52682
G1 X127.264 Y83.744 E4.68758
G1 X127.856 Y84.086 E4.73328
G1 X130.135 Y85.574 E4.91509
G1 X130.511 Y85.857 E4.94653
G1 X132.400 Y87.387 E5.10895
G1 X132.909 Y87.845 E5.15464
G1 X134.655 Y89.591 E5.31964
G1 X135.113 Y90.100 E5.36533
G1 X136.651 Y92.000 E5.52867
G1 X136.983 Y92.447 E5.56583
G1 X138.414 Y94.644 E5.74100
G1 X138.756 Y95.236 E5.78670
G1 X139.862 Y97.407 E5.94946
G1 X140.120 Y97.979 E5.99140
G1 X141.139 Y100.655 E6.18269
G1 X141.276 Y101.108 E6.21433
G1 X141.918 Y103.538 E6.38219
G1 X142.063 Y104.259 E6.43134
G1 X142.420 Y106.512 E6.58370
G1 X142.491 Y107.192 E6.62938
G1 X142.620 Y109.658 E6.79436
G1 X142.620 Y110.342 E6.84008
G1 X142.492 Y112.796 E7.00425
G1 X142.424 Y113.454 E7.04843
G1 X142.033 Y115.928 E7.21573
G1 X141.891 Y116.597 E7.26143
G1 X141.334 Y118.675 E7.40517
G1 X141.041 Y119.633 E7.47211
G1 X140.156 Y121.939 E7.63709
G1 X139.877 Y122.564 E7.68279
G1 X138.612 Y125.016 E7.86719
G1 X138.353 Y125.451 E7.90096
G1 X137.069 Y127.428 E8.05844
G1 X136.667 Y127.981 E8.10414
G1 X135.113 Y129.900 E8.26912
G1 X134.655 Y130.409 E8.31481
G1 X132.909 Y132.155 E8.47980
G1 X132.400 Y132.613 E8.52550
G1 X130.481 Y134.167 E8.69048
G1 X129.928 Y134.569 E8.73618
G1 X127.856 Y135.914 E8.90117
G1 X127.264 Y136.256 E8.94687
G1 X125.063 Y137.377 E9.11186
G1 X124.439 Y137.656 E9.15755
G1 X122.133 Y138.541 E9.32255
G1 X121.483 Y138.752 E9.36823
G1 X119.097 Y139.391 E9.53324
G1 X118.428 Y139.533 E9.57893
G1 X115.988 Y139.920 E9.74392
G1 X115.309 Y139.991 E9.78959
G1 X112.844 Y140.120 E9.95446
G1 X112.156 Y140.120 E10.00043
G1 X109.691 Y139.991 E10.16529
G1 X108.866 Y139.897 E10.22082
G1 X106.572 Y139.533 E10.37595
G1 X105.903 Y139.391 E10.42164
G1 X103.518 Y138.752 E10.58662
G1 X102.867 Y138.541 E10.63233
G1 X100.561 Y137.655 E10.79733
G1 X99.936 Y137.377 E10.84302
G1 X97.709 Y136.243 E11.01000
G1 X97.110 Y135.896 E11.05626
G1 X95.065 Y134.564 E11.21925
G1 X94.519 Y134.167 E11.26440
G1 X92.624 Y132.633 E11.42725
G1 X92.170 Y132.228 E11.46789
G1 X90.345 Y130.409 E11.64007
G1 X89.887 Y129.900 E11.68576
G1 X88.333 Y127.981 E11.85074
G1 X79.837 Y116.844 E12.78652
G1 X79.553 Y116.441 E12.81944
G1 X79.276 Y116.014 E12.85352
G1 X78.936 Y115.425 E12.89891
G1 X78.740 Y115.043 E12.92760
G1 X78.420 Y114.336 E12.97943
G1 X78.237 Y113.857 E13.01369
G1 X77.968 Y112.992 E13.07424
G1 X77.750 Y112.042 E13.13934
G1 X77.670 Y111.535 E13.17363
G1 X77.598 Y110.855 E13.21932
G1 X77.572 Y110.346 E13.25338
G1 X77.563 Y109.997 E13.27669
G1 X77.598 Y109.145 E13.33364
G1 X77.670 Y108.465 E13.37932
G1 X77.750 Y107.958 E13.41360
G1 X77.892 Y107.289 E13.45929
G1 X78.192 Y106.285 E13.52930
G1 X78.421 Y105.663 E13.57359
G1 X78.698 Y105.039 E13.61919
G1 X78.931 Y104.582 E13.65346
G1 X79.274 Y103.989 E13.69921
G1 X79.803 Y103.207 E13.76229
G1 X88.214 Y92.171 E14.68929
G1 X89.789 Y90.221 E14.85675
G1 X90.362 Y89.577 E14.91435
G1 E12.91435 F2400.00000
G92 E0
G1 X112.502 Y86.406 F7800.000
G1 E2.00000 F2400.00000
G1 F900
G1 X114.966 Y86.536 E2.11561
G1 X116.534 Y86.784 E2.18997
G1 X108.466 Y86.784 E2.56796
G1 X107.595 Y86.922 E2.60929
G1 X106.701 Y87.161 E2.65265
G1 X118.299 Y87.161 E3.19604
G1 X119.708 Y87.539 E3.26437
G1 X105.292 Y87.539 E3.93978
G1 X104.283 Y87.916 E3.99022
G1 X120.717 Y87.916 E4.76011
G1 X121.700 Y88.294 E4.80946
G1 X103.300 Y88.294 E5.67150
G1 X102.904 Y88.446 E5.69139
G1 X102.461 Y88.671 E5.71464
G1 X122.539 Y88.671 E6.65526
G1 X123.280 Y89.049 E6.69421
G1 X101.720 Y89.049 E7.70425
G1 X100.980 Y89.426 E7.74320
G1 X124.020 Y89.426 E8.82266
G1 X124.297 Y89.567 E8.83719
G1 X124.661 Y89.804 E8.85755
G1 X100.339 Y89.804 E9.99705
G1 X99.757 Y90.181 E10.02952
G1 X125.243 Y90.181 E11.22348
G1 X125.824 Y90.559 E11.25596
G1 X99.176 Y90.559 E12.50439
G1 X98.602 Y90.936 E12.53657
G1 X126.398 Y90.936 E13.83879
G1 X126.864 Y91.314 E13.86689
G1 X98.136 Y91.314 E15.21278
G1 X97.670 Y91.691 E15.24088
G1 X127.330 Y91.691 E16.63045
G1 X127.796 Y92.069 E16.65855
G1 X97.204 Y92.069 E18.09180
G1 X96.737 Y92.446 E18.11991
G1 X128.263 Y92.446 E19.59683
G1 X128.645 Y92.824 E19.62200
G1 X96.355 Y92.824 E21.13474
G1 X95.978 Y93.201 E21.15975
G1 X129.022 Y93.201 E22.70786
G1 X129.400 Y93.579 E22.73287
G1 X95.600 Y93.579 E24.31636
G1 X95.223 Y93.956 E24.34137
G1 X129.777 Y93.956 E25.96022
G1 X130.132 Y94.334 E25.98448
G1 X94.868 Y94.334 E27.63655
G1 X94.563 Y94.711 E27.65931
G1 X130.437 Y94.711 E29.34002
G1 X130.743 Y95.089 E29.36277
G1 X94.257 Y95.089 E31.07213
G1 X93.951 Y95.466 E31.09488
G1 X131.049 Y95.466 E32.83288
G1 X131.354 Y95.844 E32.85564
G1 X93.645 Y95.844 E34.62228
G1 X93.354 Y96.221 E34.64462
G1 X131.646 Y96.221 E36.43856
G1 X131.891 Y96.599 E36.45965
G1 X93.109 Y96.599 E38.27656
G1 X92.864 Y96.976 E38.29765
G1 X132.136 Y96.976 E40.13753
G1 X132.381 Y97.354 E40.15862
G1 X92.619 Y97.354 E42.02147
G1 X92.374 Y97.731 E42.04256
G1 X132.626 Y97.731 E43.92838
G1 X132.872 Y98.109 E43.94946
G1 X92.128 Y98.109 E45.85826
G1 X91.923 Y98.486 E45.87839
G1 X133.077 Y98.486 E47.80644
G1 X133.269 Y98.864 E47.82629
G1 X91.731 Y98.864 E49.77236
G1 X91.538 Y99.241 E49.79221
G1 X133.462 Y99.241 E51.75631
G1 X133.654 Y99.619 E51.77616
G1 X91.346 Y99.619 E53.75828
G1 X91.153 Y99.996 E53.77812
G1 X133.847 Y99.996 E55.77826
G1 X134.039 Y100.374 E55.79811
G1 X90.961 Y100.374 E57.81628
G1 X90.812 Y100.751 E57.83528
G1 X134.188 Y100.751 E59.86737
G1 X134.332 Y101.129 E59.88632
G1 X90.668 Y101.129 E61.93199
G1 X90.523 Y101.506 E61.95093
G1 X134.477 Y101.506 E64.01018
G1 X134.622 Y101.884 E64.02912
G1 X90.378 Y101.884 E66.10194
G1 X90.233 Y102.261 E66.12089
G1 X134.767 Y102.261 E68.20729
G1 X134.912 Y102.639 E68.22623
G1 X90.088 Y102.639 E70.32621
G1 X89.979 Y103.016 E70.34462
G1 X135.021 Y103.016 E72.45484
G1 X135.122 Y103.394 E72.47315
G1 X89.877 Y103.394 E74.59285
G1 X89.776 Y103.771 E74.61116
G1 X135.224 Y103.771 E76.74033
G1 X135.325 Y104.149 E76.75864
G1 X89.675 Y104.149 E78.89729
G1 X89.574 Y104.526 E78.91560
G1 X135.426 Y104.526 E81.06373
G1 X135.527 Y104.904 E81.08204
G1 X89.473 Y104.904 E83.23965
G1 X89.415 Y105.120 E83.25012
G1 X89.000 Y105.098 E83.26960
G1 X88.488 Y105.125 E83.29364
G1 X87.981 Y105.205 E83.31767
G1 X87.697 Y105.281 E83.33145
G1 X135.608 Y105.281 E85.57604
G1 X135.668 Y105.659 E85.59395
G1 X86.737 Y105.659 E87.88629
G1 X86.549 Y105.755 E87.89620
G1 X86.116 Y106.036 E87.92039
G1 X135.727 Y106.036 E90.24464
G1 X135.787 Y106.414 E90.26255
G1 X85.663 Y106.414 E92.61081
G1 X85.299 Y106.791 E92.63538
G1 X135.847 Y106.791 E95.00349
G1 X135.907 Y107.169 E95.02140
G1 X85.002 Y107.169 E97.40626
G1 X84.757 Y107.546 E97.42735
G1 X135.965 Y107.546 E99.82644
G1 X135.985 Y107.924 E99.84415
G1 X84.564 Y107.924 E102.25319
G1 X84.409 Y108.301 E102.27232
G1 X136.005 Y108.301 E104.68956
G1 X136.025 Y108.679 E104.70727
G1 X84.286 Y108.679 E107.13118
G1 X84.193 Y109.056 E107.14940
G1 X136.044 Y109.056 E109.57859
G1 X136.064 Y109.434 E109.59630
G1 X84.133 Y109.434 E112.02921
G1 X84.108 Y109.811 E112.04694
G1 X136.084 Y109.811 E114.48198
G1 X136.084 Y110.189 E114.49966
G1 X84.108 Y110.189 E116.93470
G1 X84.133 Y110.566 E116.95243
G1 X136.064 Y110.566 E119.38535
G1 X136.044 Y110.944 E119.40306
G1 X84.193 Y110.944 E121.83225
G1 X84.286 Y111.321 E121.85046
G1 X136.025 Y111.321 E124.27437
G1 X136.005 Y111.699 E124.29208
G1 X84.409 Y111.699 E126.70932
G1 X84.564 Y112.076 E126.72845
G1 X135.985 Y112.076 E129.13749
G1 X135.965 Y112.454 E129.15520
G1 X84.757 Y112.454 E131.55429
G1 X85.002 Y112.831 E131.57537
G1 X135.907 Y112.831 E133.96024
G1 X135.847 Y113.209 E133.97814
G1 X85.299 Y113.209 E136.34626
G1 X85.663 Y113.586 E136.37083
G1 X135.787 Y113.586 E138.71909
G1 X135.727 Y113.964 E138.73700
G1 X86.116 Y113.964 E141.06125
G1 X86.549 Y114.245 E141.08543
G1 X86.737 Y114.341 E141.09534
G1 X135.668 Y114.341 E143.38768
G1 X135.608 Y114.719 E143.40559
G1 X87.697 Y114.719 E145.65018
G1 X87.981 Y114.795 E145.66396
G1 X88.488 Y114.875 E145.68799
G1 X89.000 Y114.902 E145.71203
G1 X89.415 Y114.880 E145.73150
G1 X89.473 Y115.096 E145.74198
G1 X135.527 Y115.096 E147.89959
G1 X135.426 Y115.474 E147.91790
G1 X89.574 Y115.474 E150.06602
G1 X89.675 Y115.851 E150.08433
G1 X135.325 Y115.851 E152.22298
G1 X135.224 Y116.229 E152.24129
G1 X89.776 Y116.229 E154.37047
G1 X89.878 Y116.606 E154.38878
G1 X135.122 Y116.606 E156.50847
G1 X135.021 Y116.984 E156.52678
G1 X89.979 Y116.984 E158.63700
G1 X90.088 Y117.361 E158.65541
G1 X134.912 Y117.361 E160.75539
G1 X134.767 Y117.739 E160.77434
G1 X90.233 Y117.739 E162.86074
G1 X90.378 Y118.116 E162.87968
G1 X134.622 Y118.116 E164.95251
G1 X134.477 Y118.494 E164.97145
G1 X90.523 Y118.494 E167.03069
G1 X90.668 Y118.871 E167.04964
G1 X134.332 Y118.871 E169.09531
G1 X134.188 Y119.249 E169.11425
G1 X90.812 Y119.249 E171.14634
G1 X90.961 Y119.626 E171.16535
G1 X134.039 Y119.626 E173.18351
G1 X133.847 Y120.004 E173.20336
G1 X91.153 Y120.004 E175.20350
G1 X91.346 Y120.381 E175.22335
G1 X133.654 Y120.381 E177.20546
G1 X133.462 Y120.759 E177.22531
G1 X91.538 Y120.759 E179.18941
G1 X91.731 Y121.136 E179.20926
G1 X133.269 Y121.136 E181.15533
G1 X133.077 Y121.514 E181.17518
G1 X91.923 Y121.514 E183.10323
G1 X92.128 Y121.891 E183.12336
G1 X132.872 Y121.891 E185.03215
G1 X132.626 Y122.269 E185.05324
G1 X92.374 Y122.269 E186.93906
G1 X92.619 Y122.646 E186.96015
G1 X132.381 Y122.646 E188.82300
G1 X132.136 Y123.024 E188.84409
G1 X92.864 Y123.024 E190.68397
G1 X93.109 Y123.401 E190.70506
G1 X131.891 Y123.401 E192.52197
G1 X131.646 Y123.779 E192.54305
G1 X93.354 Y123.779 E194.33699
G1 X93.646 Y124.156 E194.35933
G1 X131.354 Y124.156 E196.12597
G1 X131.049 Y124.534 E196.14873
G1 X93.951 Y124.534 E197.88673
G1 X94.257 Y124.911 E197.90949
G1 X130.743 Y124.911 E199.61884
G1 X130.437 Y125.289 E199.64160
G1 X94.563 Y125.289 E201.32231
G1 X94.868 Y125.666 E201.34506
G1 X130.132 Y125.666 E202.99713
G1 X129.777 Y126.044 E203.02139
G1 X95.223 Y126.044 E204.64024
G1 X95.600 Y126.421 E204.66525
G1 X129.400 Y126.421 E206.24873
G1 X129.022 Y126.799 E206.27374
G1 X95.978 Y126.799 E207.82185
G1 X96.355 Y127.176 E207.84687
G1 X128.645 Y127.176 E209.35960
G1 X128.263 Y127.554 E209.38477
G1 X96.737 Y127.554 E210.86170
G1 X97.204 Y127.931 E210.88980
G1 X127.796 Y127.931 E212.32305
G1 X127.330 Y128.309 E212.35115
G1 X97.670 Y128.309 E213.74072
G1 X98.136 Y128.686 E213.76882
G1 X126.864 Y128.686 E215.11471
G1 X126.398 Y129.064 E215.14281
G1 X98.602 Y129.064 E216.44502
G1 X99.176 Y129.441 E216.47721
G1 X125.824 Y129.441 E217.72564
G1 X125.243 Y129.819 E217.75811
G1 X99.757 Y129.819 E218.95208
G1 X100.339 Y130.196 E218.98455
G1 X124.661 Y130.196 E220.12405
G1 X124.297 Y130.433 E220.14440
G1 X124.020 Y130.574 E220.15894
G1 X100.980 Y130.574 E221.23839
G1 X101.720 Y130.951 E221.27735
G1 X123.280 Y130.951 E222.28738
G1 X122.539 Y131.329 E222.32633
G1 X102.461 Y131.329 E223.26694
G1 X102.904 Y131.554 E223.29020
G1 X103.300 Y131.706 E223.31009
G1 X121.700 Y131.706 E224.17212
G1 X120.717 Y132.084 E224.22147
G1 X104.283 Y132.084 E224.99136
G1 X105.292 Y132.461 E225.04180
G1 X119.708 Y132.461 E225.71720
G1 X118.299 Y132.839 E225.78554
G1 X106.701 Y132.839 E226.32893
G1 X107.595 Y133.078 E226.37228
G1 X108.466 Y133.216 E226.41361
G1 X116.534 Y133.216 E226.79160
G1 X114.966 Y133.464 E226.86596
G1 X112.498 Y133.594 E226.98175
M104 S240 ; set temperature
M140 S110 ; set bed temperature
G1 Z0.600 F7800.000
G1 E224.98175 F2400.00000
G92 E0
G1 X136.094 Y110.002 F7800.000
G1 E2.00000 F2400.00000
G1 F3600
G1 X135.964 Y107.534 E2.11579
G1 X135.717 Y105.971 E2.18994
G1 X135.717 Y114.029 E2.56750
G1 X135.578 Y114.905 E2.60904
G1 X135.340 Y115.794 E2.65214
G1 X135.340 Y104.206 E3.19502
G1 X134.963 Y102.800 E3.26323
G1 X134.963 Y117.200 E3.93788
G1 X134.587 Y118.209 E3.98833
G1 X134.587 Y101.791 E4.75751
G1 X134.210 Y100.809 E4.80677
G1 X134.210 Y119.191 E5.66792
G1 X134.054 Y119.596 E5.68829
G1 X133.833 Y120.030 E5.71109
G1 X133.833 Y99.970 E6.65091
G1 X133.456 Y99.230 E6.68979
G1 X133.456 Y120.770 E7.69890
G1 X133.079 Y121.509 E7.73778
G1 X133.079 Y98.491 E8.81617
G1 X132.933 Y98.203 E8.83130
G1 X132.703 Y97.849 E8.85110
G1 X132.703 Y122.151 E9.98966
G1 X132.326 Y122.732 E10.02207
G1 X132.326 Y97.268 E11.21500
G1 X131.949 Y96.688 E11.24741
G1 X131.949 Y123.312 E12.49470
G1 X131.572 Y123.887 E12.52692
G1 X131.572 Y96.113 E13.82813
G1 X131.196 Y95.648 E13.85618
G1 X131.196 Y124.352 E15.20099
G1 X130.819 Y124.818 E15.22904
G1 X130.819 Y95.182 E16.61744
G1 X130.442 Y94.717 E16.64549
G1 X130.442 Y125.283 E18.07749
G1 X130.065 Y125.748 E18.10554
G1 X130.065 Y94.252 E19.58113
G1 X129.688 Y93.868 E19.60634
G1 X129.688 Y126.132 E21.11793
G1 X129.312 Y126.509 E21.14290
G1 X129.312 Y93.491 E22.68979
G1 X128.935 Y93.114 E22.71476
G1 X128.935 Y126.886 E24.29696
G1 X128.558 Y127.263 E24.32192
G1 X128.558 Y92.737 E25.93942
G1 X128.181 Y92.381 E25.96373
G1 X128.181 Y127.619 E27.61465
G1 X127.805 Y127.925 E27.63736
G1 X127.805 Y92.075 E29.31687
G1 X127.428 Y91.770 E29.33958
G1 X127.428 Y128.230 E31.04768
G1 X127.051 Y128.535 E31.07039
G1 X127.051 Y91.465 E32.80708
G1 X126.674 Y91.160 E32.82979
G1 X126.674 Y128.840 E34.59506
G1 X126.297 Y129.134 E34.61745
G1 X126.297 Y90.866 E36.41025
G1 X125.921 Y90.622 E36.43130
G1 X125.921 Y129.378 E38.24702
G1 X125.544 Y129.623 E38.26807
G1 X125.544 Y90.377 E40.10672
G1 X125.167 Y90.132 E40.12777
G1 X125.167 Y129.868 E41.98935
G1 X124.790 Y130.112 E42.01040
G1 X124.790 Y89.888 E43.89491
G1 X124.414 Y89.643 E43.91595
G1 X124.414 Y130.357 E45.82339
G1 X124.037 Y130.565 E45.84356
G1 X124.037 Y89.435 E47.77051
G1 X123.660 Y89.243 E47.79032
G1 X123.660 Y130.757 E49.73525
G1 X123.283 Y130.949 E49.75507
G1 X123.283 Y89.051 E51.71799
G1 X122.906 Y88.859 E51.73780
G1 X122.906 Y131.141 E53.71872
G1 X122.530 Y131.333 E53.73853
G1 X122.530 Y88.667 E55.73743
G1 X122.153 Y88.475 E55.75724
G1 X122.153 Y131.525 E57.77413
G1 X121.776 Y131.677 E57.79316
G1 X121.776 Y88.323 E59.82426
G1 X121.399 Y88.178 E59.84317
G1 X121.399 Y131.822 E61.88783
G1 X121.023 Y131.966 E61.90674
G1 X121.023 Y88.034 E63.96495
G1 X120.646 Y87.889 E63.98385
G1 X120.646 Y132.111 E66.05562
G1 X120.269 Y132.256 E66.07452
G1 X120.269 Y87.744 E68.15984
G1 X119.892 Y87.600 E68.17875
G1 X119.892 Y132.400 E70.27761
G1 X119.515 Y132.513 E70.29603
G1 X119.515 Y87.487 E72.40546
G1 X119.139 Y87.386 E72.42373
G1 X119.139 Y132.614 E74.54262
G1 X118.762 Y132.715 E74.56089
G1 X118.762 Y87.285 E76.68923
G1 X118.385 Y87.184 E76.70751
G1 X118.385 Y132.816 E78.84531
G1 X118.008 Y132.917 E78.86358
G1 X118.008 Y87.083 E81.01084
G1 X117.632 Y86.982 E81.02912
G1 X117.632 Y133.018 E83.18584
G1 X117.255 Y133.102 E83.20393
G1 X117.255 Y86.898 E85.36856
