; generated by Slic3r 1.3.0 on 2019-03-07 at 17:05:49

; external perimeters extrusion width = 0.44mm (3.38mm^3/s)
; perimeters extrusion width = 0.48mm (7.54mm^3/s)
; infill extrusion width = 0.48mm (10.05mm^3/s)
; solid infill extrusion width = 0.48mm (2.51mm^3/s)
; top infill extrusion width = 0.48mm (1.88mm^3/s)

; external perimeters extrusion width = 0.44mm (3.38mm^3/s)
; perimeters extrusion width = 0.48mm (7.54mm^3/s)
; infill extrusion width = 0.48mm (10.05mm^3/s)
; solid infill extrusion width = 0.48mm (2.51mm^3/s)
; top infill extrusion width = 0.48mm (1.88mm^3/s)

M107
M190 S70 ; set bed temperature and wait for it to be reached
M104 S225 ; set temperature
G28 ; home all axes
G1 Z5 F5000 ; lift nozzle

; Filament gcode

M109 S225 ; set temperature and wait for it to be reached
G21 ; set units to millimeters
G90 ; use absolute coordinates
M82 ; use absolute distances for extrusion
G92 E0
G1 Z0.400 F7800.000
G1 E-2.00000 F2400.00000
G92 E0
G1 X23.583 Y64.220 F7800.000
G1 E2.00000 F2400.00000
G1 F1800
G1 X25.743 Y63.405 E2.27422
G1 X27.000 Y63.286 E2.42419
G1 X157.000 Y63.286 E17.86366
G1 X159.275 Y63.683 E18.13789
G1 X160.615 Y64.342 E18.31527
G1 X196.615 Y87.342 E23.38892
G1 X198.318 Y88.901 E23.66315
G1 X199.392 Y90.945 E23.93737
G1 X199.714 Y93.000 E24.18441
G1 X199.714 Y127.000 E28.22242
G1 X199.317 Y129.275 E28.49665
G1 X198.173 Y131.280 E28.77087
G1 X196.615 Y132.658 E29.01790
G1 X160.615 Y155.658 E34.09155
G1 X158.484 Y156.548 E34.36578
G1 X157.000 Y156.714 E34.54316
G1 X27.000 Y156.714 E49.98264
G1 X24.725 Y156.317 E50.25686
G1 X22.720 Y155.173 E50.53109
G1 X21.220 Y153.417 E50.80531
G1 X20.405 Y151.257 E51.07954
G1 X20.286 Y150.000 E51.22950
G1 X20.286 Y70.000 E60.73072
G1 X20.683 Y67.725 E61.00494
G1 X21.827 Y65.720 E61.27917
G1 X23.537 Y64.259 E61.54626
G1 E59.54626 F2400.00000
G92 E0
G1 X157.909 Y131.495 F7800.000
G1 E2.00000 F2400.00000
G1 F1800
G1 X157.909 Y128.505 E2.35505
G1 X159.526 Y125.990 E2.71009
G1 X162.245 Y124.749 E3.06512
G1 X165.204 Y125.174 E3.42017
G1 X167.463 Y127.132 E3.77523
G1 X168.305 Y130.000 E4.13027
G1 X167.463 Y132.868 E4.48532
G1 X165.204 Y134.826 E4.84036
G1 X162.245 Y135.252 E5.19541
G1 X159.526 Y134.010 E5.55045
G1 X157.942 Y131.545 E5.89836
G1 X158.624 Y131.285 F7800.000
G1 F1800
G1 X158.624 Y128.715 E6.20360
G1 X160.013 Y126.553 E6.50883
G1 X162.351 Y125.485 E6.81406
G1 X164.895 Y125.851 E7.11930
G1 X166.837 Y127.534 E7.42454
G1 X167.561 Y130.000 E7.72978
G1 X166.837 Y132.466 E8.03501
G1 X164.895 Y134.149 E8.34025
G1 X162.351 Y134.515 E8.64548
G1 X160.013 Y133.447 E8.95071
G1 X158.656 Y131.336 E9.24882
G1 X159.338 Y131.075 F7800.000
G1 F1800
G1 X159.338 Y128.925 E9.50425
G1 X160.501 Y127.115 E9.75967
G1 X162.457 Y126.222 E10.01509
G1 X164.586 Y126.528 E10.27052
G1 X166.211 Y127.936 E10.52595
G1 X166.817 Y130.000 E10.78138
G1 X166.211 Y132.064 E11.03681
G1 X164.586 Y133.472 E11.29223
G1 X162.457 Y133.778 E11.54766
G1 X160.501 Y132.885 E11.80308
G1 X159.370 Y131.126 E12.05138
G1 X159.338 Y131.075 F7800.000
G1 E10.05138 F2400.00000
G92 E0
G1 X179.370 Y111.748 F7800.000
G1 E2.00000 F2400.00000
G1 F1800
G1 X179.370 Y108.252 E2.41527
G1 X182.103 Y106.072 E2.83053
G1 X185.512 Y106.850 E3.24579
G1 X187.029 Y110.000 E3.66104
G1 X185.512 Y113.150 E4.07630
G1 X182.103 Y113.928 E4.49156
G1 X179.417 Y111.786 E4.89970
G1 X180.084 Y111.404 F7800.000
G1 F1800
G1 X180.084 Y108.596 E5.23327
G1 X182.280 Y106.844 E5.56684
G1 X185.018 Y107.469 E5.90041
G1 X186.237 Y110.000 E6.23397
G1 X185.018 Y112.531 E6.56754
G1 X182.280 Y113.156 E6.90111
G1 X180.131 Y111.442 E7.22755
G1 X180.798 Y111.060 F7800.000
G1 F1800
G1 X180.798 Y108.940 E7.47943
G1 X182.456 Y107.617 E7.73131
G1 X184.524 Y108.089 E7.98318
G1 X185.444 Y110.000 E8.23506
G1 X184.524 Y111.911 E8.48694
G1 X182.456 Y112.383 E8.73881
G1 X180.845 Y111.098 E8.98356
G1 X180.798 Y111.060 F7800.000
G1 E6.98356 F2400.00000
G92 E0
G1 X166.077 Y94.070 F7800.000
G1 E2.00000 F2400.00000
G1 F1800
G1 X165.204 Y94.826 E2.13717
G1 X162.245 Y95.252 E2.49222
G1 X159.526 Y94.010 E2.84726
G1 X157.909 Y91.495 E3.20229
G1 X157.909 Y88.505 E3.55735
G1 X159.526 Y85.990 E3.91239
G1 X162.245 Y84.748 E4.26743
G1 X165.204 Y85.174 E4.62247
G1 X167.463 Y87.132 E4.97751
G1 X168.305 Y90.000 E5.33256
G1 X167.463 Y92.868 E5.68761
G1 X166.122 Y94.030 E5.89835
G1 X165.609 Y93.530 F7800.000
G1 F1800
G1 X164.895 Y94.149 E6.01062
G1 X162.351 Y94.515 E6.31586
G1 X160.013 Y93.447 E6.62109
G1 X158.624 Y91.285 E6.92632
G1 X158.624 Y88.715 E7.23156
G1 X160.013 Y86.553 E7.53679
G1 X162.351 Y85.485 E7.84202
G1 X164.895 Y85.851 E8.14726
G1 X166.837 Y87.534 E8.45249
G1 X167.561 Y90.000 E8.75773
G1 X166.837 Y92.466 E9.06297
G1 X165.655 Y93.491 E9.24881
G1 X165.142 Y92.990 F7800.000
G1 F1800
G1 X164.586 Y93.472 E9.33617
G1 X162.457 Y93.778 E9.59160
G1 X160.501 Y92.885 E9.84703
G1 X159.338 Y91.075 E10.10245
G1 X159.338 Y88.925 E10.35788
G1 X160.501 Y87.115 E10.61330
G1 X162.457 Y86.222 E10.86872
G1 X164.586 Y86.528 E11.12415
G1 X166.211 Y87.936 E11.37957
G1 X166.817 Y90.000 E11.63500
G1 X166.211 Y92.064 E11.89043
G1 X165.187 Y92.951 E12.05136
G1 X165.262 Y93.372 F7800.000
G1 E10.05136 F2400.00000
G92 E0
G1 X126.305 Y90.000 F7800.000
G1 E2.00000 F2400.00000
G1 F1800
G1 X125.463 Y92.868 E2.35505
G1 X123.204 Y94.826 E2.71009
G1 X120.245 Y95.252 E3.06513
G1 X117.526 Y94.010 E3.42018
G1 X115.909 Y91.495 E3.77521
G1 X115.909 Y88.505 E4.13026
G1 X117.526 Y85.990 E4.48530
G1 X120.245 Y84.748 E4.84035
G1 X123.223 Y85.177 E5.19765
G1 X125.464 Y87.136 E5.55121
G1 X126.289 Y89.942 E5.89864
G1 X125.561 Y90.000 F7800.000
G1 F1800
G1 X124.837 Y92.466 E6.20387
G1 X122.895 Y94.149 E6.50911
G1 X120.351 Y94.515 E6.81434
G1 X118.013 Y93.447 E7.11958
G1 X116.624 Y91.285 E7.42481
G1 X116.624 Y88.715 E7.73004
G1 X118.013 Y86.553 E8.03527
G1 X120.351 Y85.485 E8.34051
G1 X122.912 Y85.854 E8.64781
G1 X124.838 Y87.536 E8.95156
G1 X125.544 Y89.942 E9.24937
G1 X124.817 Y90.000 F7800.000
G1 F1800
G1 X124.211 Y92.064 E9.50480
G1 X122.586 Y93.472 E9.76022
G1 X120.457 Y93.778 E10.01565
G1 X118.500 Y92.885 E10.27108
G1 X117.338 Y91.075 E10.52650
G1 X117.338 Y88.925 E10.78192
G1 X118.500 Y87.115 E11.03734
G1 X120.457 Y86.222 E11.29277
G1 X122.601 Y86.530 E11.55007
G1 X124.211 Y87.937 E11.80401
G1 X124.800 Y89.942 E12.05220
G1 X124.817 Y90.000 F7800.000
G1 E10.05220 F2400.00000
G92 E0
G1 X120.245 Y124.749 F7800.000
G1 E2.00000 F2400.00000
G1 F1800
G1 X123.204 Y125.174 E2.35505
G1 X125.463 Y127.132 E2.71010
G1 X126.305 Y130.000 E3.06514
G1 X125.463 Y132.868 E3.42019
G1 X123.204 Y134.826 E3.77523
G1 X120.245 Y135.252 E4.13028
G1 X117.526 Y134.010 E4.48532
G1 X115.909 Y131.495 E4.84036
G1 X115.909 Y128.505 E5.19541
G1 X117.526 Y125.990 E5.55044
G1 X120.190 Y124.773 E5.89836
G1 X120.351 Y125.485 F7800.000
G1 F1800
G1 X122.895 Y125.851 E6.20360
G1 X124.837 Y127.534 E6.50884
G1 X125.561 Y130.000 E6.81407
G1 X124.837 Y132.466 E7.11931
G1 X122.895 Y134.149 E7.42454
G1 X120.351 Y134.515 E7.72978
G1 X118.013 Y133.447 E8.03502
G1 X116.624 Y131.285 E8.34024
G1 X116.624 Y128.715 E8.64548
G1 X118.013 Y126.553 E8.95071
G1 X120.296 Y125.510 E9.24882
G1 X120.457 Y126.222 F7800.000
G1 F1800
G1 X122.586 Y126.528 E9.50424
G1 X124.211 Y127.936 E9.75968
G1 X124.817 Y130.000 E10.01510
G1 X124.211 Y132.064 E10.27053
G1 X122.586 Y133.472 E10.52595
G1 X120.457 Y133.778 E10.78138
G1 X118.500 Y132.885 E11.03681
G1 X117.338 Y131.075 E11.29223
G1 X117.338 Y128.925 E11.54766
G1 X118.500 Y127.115 E11.80307
G1 X120.402 Y126.247 E12.05138
G1 X120.457 Y126.222 F7800.000
G1 E10.05138 F2400.00000
G92 E0
G1 X114.828 Y148.172 F7800.000
G1 E2.00000 F2400.00000
G1 F1800
G1 X114.828 Y71.828 E11.06694
G1 X156.466 Y71.828 E16.01202
G1 X191.172 Y94.002 E20.90328
G1 X191.172 Y125.998 E24.70341
G1 X156.466 Y148.172 E29.59468
G1 X114.888 Y148.172 E34.53264
G1 X114.114 Y148.886 F7800.000
G1 F1800
G1 X114.114 Y71.114 E43.76921
G1 X156.674 Y71.114 E48.82389
G1 X191.886 Y93.610 E53.78640
G1 X191.886 Y126.390 E57.67945
G1 X156.674 Y148.886 E62.64195
G1 X114.174 Y148.886 E67.68951
G1 X113.400 Y149.600 F7800.000
G1 F1800
G1 X113.400 Y70.400 E77.09572
G1 X156.883 Y70.400 E82.26000
G1 X192.600 Y93.219 E87.29375
G1 X192.600 Y126.781 E91.27972
G1 X156.883 Y149.600 E96.31347
G1 X113.460 Y149.600 E101.47063
G1 X113.567 Y149.236 F7800.000
G1 E99.47063 F2400.00000
G92 E0
G1 X115.495 Y132.456 F7800.000
G1 E2.00000 F2400.00000
G1 F1800
G1 X115.369 Y131.600 E2.04501
G1 X115.369 Y128.400 E2.21140
G1 X115.495 Y127.544 E2.25641
G1 E0.25641 F2400.00000
G92 E0
G1 X115.495 Y92.456 F7800.000
G1 E2.00000 F2400.00000
G1 F1800
G1 X115.369 Y91.600 E2.04501
G1 X115.369 Y88.400 E2.21140
G1 X115.495 Y87.544 E2.25641
G1 E0.25641 F2400.00000
G92 E0
G1 X115.902 Y93.513 F7800.000
G1 E2.00000 F2400.00000
G1 F1800
G1 X115.809 Y93.369 E2.02057
G1 X115.265 Y93.448 E2.08622
G1 X115.265 Y94.150 E2.17007
G1 X116.457 Y92.958 E2.37148
G1 X116.855 Y93.576 E2.45927
G1 X115.265 Y95.166 E2.72781
G1 X115.265 Y96.182 E2.84913
G1 X117.252 Y94.195 E3.18479
G1 X117.316 Y94.294 E3.19895
G1 X117.901 Y94.561 E3.27574
G1 X115.265 Y97.197 E3.72101
G1 X115.265 Y98.213 E3.84233
G1 X118.598 Y94.880 E4.40537
G1 X119.295 Y95.198 E4.49693
G1 X115.265 Y99.229 E5.17775
G1 X115.265 Y100.245 E5.29907
G1 X119.993 Y95.517 E6.09767
G1 X120.417 Y95.710 E6.15337
G1 X120.881 Y95.644 E6.20944
G1 X115.265 Y101.260 E7.15817
G1 X115.265 Y102.276 E7.27948
G1 X122.068 Y95.473 E8.42860
G1 X123.254 Y95.302 E8.57175
G1 X115.265 Y103.292 E9.92125
G1 X115.265 Y104.307 E10.04256
G1 X147.307 Y72.265 E15.45502
G1 X148.323 Y72.265 E15.57633
G1 X115.265 Y105.323 E21.16036
G1 X115.265 Y106.339 E21.28167
G1 X149.339 Y72.265 E27.03726
G1 X150.355 Y72.265 E27.15858
G1 X115.265 Y107.355 E33.08573
G1 X115.265 Y108.370 E33.20705
G1 X151.370 Y72.265 E39.30577
G1 X152.386 Y72.265 E39.42709
G1 X115.265 Y109.386 E45.69738
G1 X115.265 Y110.402 E45.81869
G1 X153.402 Y72.265 E52.26055
G1 X154.417 Y72.265 E52.38186
G1 X115.265 Y111.417 E58.99529
G1 X115.265 Y112.433 E59.11660
G1 X155.433 Y72.265 E65.90160
G1 X156.449 Y72.265 E66.02291
G1 X115.265 Y113.449 E72.97947
G1 X115.265 Y114.465 E73.10079
G1 X157.102 Y72.627 E80.16769
G1 X157.722 Y73.023 E80.25554
G1 X115.265 Y115.480 E87.42713
G1 X115.265 Y116.496 E87.54844
G1 X158.342 Y73.419 E94.82472
G1 X158.961 Y73.815 E94.91256
G1 X115.265 Y117.512 E102.29353
G1 X115.265 Y118.527 E102.41484
G1 X159.581 Y74.211 E109.90049
G1 X160.201 Y74.607 E109.98833
G1 X115.265 Y119.543 E117.57866
G1 X115.265 Y120.559 E117.69998
G1 X160.821 Y75.003 E125.39500
G1 X161.440 Y75.399 E125.48284
G1 X115.265 Y121.575 E133.28254
G1 X115.265 Y122.590 E133.40386
G1 X162.060 Y75.795 E141.30825
G1 X162.680 Y76.191 E141.39609
G1 X115.265 Y123.606 E149.40516
G1 X115.265 Y124.622 E149.52648
G1 X163.300 Y76.587 E157.64024
G1 X163.919 Y76.983 E157.72808
G1 X115.265 Y125.637 E165.94652
G1 X115.265 Y126.653 E166.06784
G1 X164.539 Y77.379 E174.39097
G1 X165.159 Y77.775 E174.47881
G1 X117.621 Y125.313 E182.50866
G1 X119.490 Y124.459 E182.75415
G1 X165.779 Y78.170 E190.57289
G1 X166.399 Y78.566 E190.66073
G1 X159.679 Y85.286 E191.79582
G1 X161.548 Y84.432 E192.04132
G1 X167.018 Y78.962 E192.96529
G1 X167.638 Y79.358 E193.05313
G1 X162.601 Y84.396 E193.90402
G1 X163.489 Y84.524 E194.01118
G1 X168.258 Y79.754 E194.81676
G1 X168.878 Y80.150 E194.90460
G1 X164.377 Y84.651 E195.66487
G1 X165.235 Y84.775 E195.76851
G1 X165.253 Y84.790 E195.77133
G1 X169.497 Y80.546 E196.48820
G1 X170.117 Y80.942 E196.57604
G1 X165.797 Y85.262 E197.30568
G1 X166.342 Y85.733 E197.39168
G1 X170.737 Y81.338 E198.13408
G1 X171.357 Y81.734 E198.22192
G1 X166.886 Y86.205 E198.97707
G1 X167.430 Y86.676 E199.06308
G1 X171.976 Y82.130 E199.83100
G1 X172.596 Y82.526 E199.91884
G1 X167.881 Y87.241 E200.71535
G1 X168.111 Y88.027 E200.81309
G1 X173.216 Y82.922 E201.67535
G1 X173.836 Y83.318 E201.76319
G1 X168.342 Y88.812 E202.69119
G1 X168.572 Y89.597 E202.78893
G1 X174.455 Y83.714 E203.78268
G1 X175.075 Y84.110 E203.87052
G1 X168.716 Y90.469 E204.94468
G1 X168.294 Y91.907 E205.12367
G1 X175.695 Y84.506 E206.37382
G1 X176.315 Y84.902 E206.46167
G1 X167.872 Y93.345 E207.88782
G1 E205.88782 F2400.00000
G92 E0
G1 X158.419 Y86.546 F7800.000
G1 E2.00000 F2400.00000
G1 F1800
G1 X120.573 Y124.392 E8.39266
G1 X121.461 Y124.520 E8.49982
G1 X157.473 Y88.508 E14.58271
G1 X157.473 Y89.523 E14.70402
G1 X122.349 Y124.647 E20.63691
G1 X123.237 Y124.776 E20.74399
G1 X157.473 Y90.539 E26.52699
G1 X157.473 Y91.427 E26.63301
G1 X157.523 Y91.505 E26.64408
G1 X123.781 Y125.247 E32.34363
G1 X124.325 Y125.719 E32.42963
G1 X157.921 Y92.123 E38.10438
G1 X158.318 Y92.741 E38.19217
G1 X124.869 Y126.190 E43.84213
G1 X125.413 Y126.662 E43.92813
G1 X158.715 Y93.360 E49.55329
G1 X159.113 Y93.978 E49.64108
G1 X125.873 Y127.217 E55.25564
G1 X126.104 Y128.002 E55.35338
G1 X159.657 Y94.450 E61.02085
G1 X160.354 Y94.768 E61.11241
G1 X126.334 Y128.788 E66.85872
G1 X126.565 Y129.573 E66.95646
G1 X161.051 Y95.087 E72.78161
G1 X161.748 Y95.405 E72.87316
G1 X126.729 Y130.425 E78.78841
G1 X126.307 Y131.862 E78.96739
G1 X162.466 Y95.703 E85.07514
G1 X163.652 Y95.533 E85.21829
G1 X125.885 Y133.300 E91.59772
G1 E89.59772 F2400.00000
G92 E0
G1 X116.189 Y132.839 F7800.000
G1 E2.00000 F2400.00000
G1 F1800
G1 X115.265 Y133.763 E2.15614
G1 X115.265 Y134.779 E2.27745
G1 X116.703 Y133.341 E2.52040
G1 X117.100 Y133.959 E2.60819
G1 X115.265 Y135.795 E2.91826
G1 X115.265 Y136.810 E3.03957
G1 X117.635 Y134.440 E3.43994
G1 X118.332 Y134.758 E3.53149
G1 X115.265 Y137.826 E4.04963
G1 X115.265 Y138.842 E4.17095
G1 X119.029 Y135.077 E4.80687
G1 X119.727 Y135.395 E4.89842
G1 X115.265 Y139.857 E5.65211
G1 X115.265 Y140.873 E5.77343
G1 X120.429 Y135.709 E6.64576
G1 X121.615 Y135.538 E6.78891
G1 X115.265 Y141.889 E7.86162
G1 X115.265 Y142.904 E7.98293
G1 X122.802 Y135.368 E9.25603
G1 X123.791 Y135.225 E9.37539
G1 X125.054 Y134.131 E9.57506
G1 X115.265 Y143.920 E11.22865
G1 X115.265 Y144.936 E11.34997
G1 X164.838 Y95.362 E19.72363
G1 X165.791 Y95.225 E19.83856
G1 X167.290 Y93.927 E20.07543
G1 X115.265 Y145.952 E28.86314
G1 X115.265 Y146.967 E28.98446
G1 X176.934 Y85.298 E39.40129
G1 X177.554 Y85.694 E39.48913
G1 X115.512 Y147.735 E49.96880
G1 X116.528 Y147.735 E50.09012
G1 X178.174 Y86.090 E60.50290
G1 X178.794 Y86.486 E60.59074
G1 X117.544 Y147.735 E70.93665
G1 X118.560 Y147.735 E71.05796
G1 X179.413 Y86.882 E81.33699
G1 X180.033 Y87.277 E81.42483
G1 X119.575 Y147.735 E91.63697
G1 X120.591 Y147.735 E91.75828
G1 X180.653 Y87.673 E101.90354
G1 X181.273 Y88.069 E101.99138
G1 X121.607 Y147.735 E112.06976
G1 X122.622 Y147.735 E112.19108
G1 X181.892 Y88.465 E122.20257
G1 X182.512 Y88.861 E122.29041
G1 X123.638 Y147.735 E132.23502
G1 X124.654 Y147.735 E132.35634
G1 X183.132 Y89.257 E142.23407
G1 X183.752 Y89.653 E142.32191
G1 X125.670 Y147.735 E152.13276
G1 X126.685 Y147.735 E152.25407
G1 X184.371 Y90.049 E161.99804
G1 X184.991 Y90.445 E162.08588
G1 X127.701 Y147.735 E171.76296
G1 X128.717 Y147.735 E171.88428
G1 X185.611 Y90.841 E181.49448
G1 X186.231 Y91.237 E181.58232
G1 X129.732 Y147.735 E191.12564
G1 X130.748 Y147.735 E191.24696
G1 X186.850 Y91.633 E200.72339
G1 X187.470 Y92.029 E200.81123
G1 X131.764 Y147.735 E210.22079
G1 X132.780 Y147.735 E210.34210
G1 X188.090 Y92.425 E219.68478
G1 X188.710 Y92.821 E219.77262
G1 X133.795 Y147.735 E229.04841
G1 X134.811 Y147.735 E229.16972
G1 X189.329 Y93.217 E238.37863
G1 X189.949 Y93.613 E238.46647
G1 X135.827 Y147.735 E247.60850
G1 X136.842 Y147.735 E247.72982
G1 X158.560 Y126.018 E251.39822
G1 X158.761 Y125.706 E251.44251
G1 X158.966 Y125.612 E251.46945
G1 X190.569 Y94.009 E256.80767
G1 X190.735 Y94.115 E256.83124
G1 X190.735 Y94.858 E256.92000
G1 X160.835 Y124.758 E261.97051
G1 X161.861 Y124.290 E262.10522
G1 X162.262 Y124.347 E262.15358
G1 X178.378 Y108.231 E264.87578
G1 X178.378 Y108.186 E264.88123
G1 X178.603 Y108.006 E264.91565
G1 X190.735 Y95.874 E266.96492
G1 X190.735 Y96.890 E267.08624
G1 X181.974 Y105.651 E268.56613
G1 X182.801 Y105.840 E268.66745
G1 X190.735 Y97.905 E270.00766
G1 X190.735 Y98.921 E270.12898
G1 X183.628 Y106.028 E271.32950
G1 X184.455 Y106.217 E271.43082
