; generated by Slic3r 1.3.0 on 2019-02-24 at 12:33:36

; external perimeters extrusion width = 0.44mm (2.38mm^3/s)
; perimeters extrusion width = 0.56mm (6.20mm^3/s)
; infill extrusion width = 0.50mm (7.31mm^3/s)
; solid infill extrusion width = 0.56mm (2.07mm^3/s)
; top infill extrusion width = 0.56mm (1.55mm^3/s)
; support material extrusion width = 0.44mm (6.35mm^3/s)

M107
M190 S70 ; set bed temperature and wait for it to be reached
M104 S220 ; set temperature
G28 ; home all axes
G1 Z5 F5000 ; lift nozzle

; Filament gcode

M109 S220 ; set temperature and wait for it to be reached
G21 ; set units to millimeters
G90 ; use absolute coordinates
M82 ; use absolute distances for extrusion
G92 E0
G1 Z0.300 F7200.000
G1 E-2.00000 F2400.00000
G92 E0
G1 X22.661 Y63.236 F7200.000
G1 E2.00000 F2400.00000
G1 F1200
G1 X25.908 Y62.372 E2.22443
G1 X157.319 Y62.372 E11.00345
G1 X159.562 Y62.769 E11.15562
G1 X160.838 Y63.400 E11.25070
G1 X197.423 Y86.774 E14.15098
G1 X199.099 Y88.316 E14.30315
G1 X199.752 Y89.363 E14.38554
G1 X199.940 Y89.740 E14.41369
G1 X200.628 Y92.658 E14.61403
G1 X200.628 Y127.598 E16.94820
G1 X200.231 Y129.841 E17.10037
G1 X199.088 Y131.812 E17.25255
G1 X197.611 Y133.106 E17.38375
G1 X160.838 Y156.600 E20.29896
G1 X158.734 Y157.473 E20.45113
G1 X157.319 Y157.628 E20.54621
G1 X25.908 Y157.628 E29.32522
G1 X23.665 Y157.231 E29.47739
G1 X21.694 Y156.088 E29.62956
G1 X20.236 Y154.339 E29.78173
G1 X19.372 Y151.092 E30.00616
G1 X19.372 Y68.908 E35.49651
G1 X19.769 Y66.665 E35.64869
G1 X20.912 Y64.694 E35.80086
G1 X22.615 Y63.274 E35.94902
G1 E33.94902 F2400.00000
G92 E0
G1 X71.319 Y68.908 F7200.000
G1 E2.00000 F2400.00000
G1 F1200
G1 X25.908 Y68.908 E4.12751
G1 X25.908 Y69.285 E4.14517
G1 X71.910 Y69.285 E6.30033
G1 X72.500 Y69.662 E6.33313
G1 X25.908 Y69.662 E8.51593
G1 X25.908 Y70.039 E8.53360
G1 X73.090 Y70.039 E10.74404
G1 X73.680 Y70.416 E10.77685
G1 X25.908 Y70.416 E13.01494
G1 X25.908 Y70.793 E13.03260
G1 X74.270 Y70.793 E15.29833
G1 X74.860 Y71.170 E15.33114
G1 X25.908 Y71.170 E17.62452
G1 X25.908 Y71.547 E17.64218
G1 X75.450 Y71.547 E19.96320
G1 X76.040 Y71.924 E19.99601
G1 X25.908 Y71.924 E22.34467
G1 X25.908 Y72.301 E22.36234
G1 X76.630 Y72.301 E24.73865
G1 X77.220 Y72.678 E24.77145
G1 X25.908 Y72.678 E27.17541
G1 X25.908 Y73.055 E27.19307
G1 X77.810 Y73.055 E29.62467
G1 X78.400 Y73.432 E29.65748
G1 X25.908 Y73.432 E32.11673
G1 X25.908 Y73.809 E32.13439
G1 X78.990 Y73.809 E34.62128
G1 X79.581 Y74.186 E34.65408
G1 X25.908 Y74.186 E37.16862
G1 X25.908 Y74.563 E37.18628
G1 X80.171 Y74.563 E39.72846
G1 X80.761 Y74.940 E39.76127
G1 X25.908 Y74.940 E42.33109
G1 X25.908 Y75.317 E42.34875
G1 X81.351 Y75.317 E44.94622
G1 X81.941 Y75.694 E44.97903
G1 X25.908 Y75.694 E47.60414
G1 X25.908 Y76.071 E47.62180
G1 X82.531 Y76.071 E50.27456
G1 X83.121 Y76.448 E50.30737
G1 X25.908 Y76.448 E52.98777
G1 X25.908 Y76.825 E53.00543
G1 X83.711 Y76.825 E55.71348
G1 X84.301 Y77.202 E55.74628
G1 X25.908 Y77.202 E58.48198
G1 X25.908 Y77.579 E58.49964
G1 X84.891 Y77.579 E61.26298
G1 X85.481 Y77.956 E61.29578
G1 X25.908 Y77.956 E64.08676
G1 X25.908 Y78.333 E64.10442
G1 X86.071 Y78.333 E66.92305
G1 X86.661 Y78.710 E66.95585
G1 X25.908 Y78.710 E69.80213
G1 X25.908 Y79.087 E69.81979
G1 X87.252 Y79.087 E72.69370
G1 X87.842 Y79.464 E72.72651
G1 X25.908 Y79.464 E75.62807
G1 X25.908 Y79.841 E75.64573
G1 X88.432 Y79.841 E78.57493
G1 X89.022 Y80.218 E78.60774
G1 X25.908 Y80.218 E81.56459
G1 X25.908 Y80.595 E81.58225
G1 X89.612 Y80.595 E84.56674
G1 X90.202 Y80.972 E84.59955
G1 X25.908 Y80.972 E87.61169
G1 X25.908 Y81.349 E87.62935
G1 X90.792 Y81.349 E90.66913
G1 X91.382 Y81.726 E90.70194
G1 X25.908 Y81.726 E93.76937
G1 X25.908 Y82.103 E93.78703
G1 X91.972 Y82.103 E96.88210
G1 X92.562 Y82.480 E96.91490
G1 X25.908 Y82.480 E100.03762
G1 X25.908 Y82.857 E100.05528
G1 X93.152 Y82.857 E103.20564
G1 X93.742 Y83.234 E103.23845
G1 X25.908 Y83.234 E106.41645
G1 X25.908 Y83.611 E106.43412
G1 X94.332 Y83.611 E109.63977
G1 X94.922 Y83.988 E109.67257
G1 X25.908 Y83.988 E112.90587
G1 X25.908 Y84.365 E112.92353
G1 X95.513 Y84.365 E116.18447
G1 X96.103 Y84.742 E116.21727
G1 X25.908 Y84.742 E119.50586
G1 X25.908 Y85.119 E119.52352
G1 X96.693 Y85.119 E122.83975
G1 X97.283 Y85.496 E122.87255
G1 X25.908 Y85.496 E126.21643
G1 X25.908 Y85.873 E126.23409
G1 X97.873 Y85.873 E129.60561
G1 X98.463 Y86.250 E129.63841
G1 X25.908 Y86.250 E133.03757
G1 X25.908 Y86.627 E133.05524
G1 X99.053 Y86.627 E136.48204
G1 X99.643 Y87.004 E136.51485
G1 X25.908 Y87.004 E139.96930
G1 X25.908 Y87.381 E139.98696
G1 X100.233 Y87.381 E143.46906
G1 X100.823 Y87.758 E143.50186
G1 X25.908 Y87.758 E147.01161
G1 X25.908 Y88.135 E147.02927
G1 X101.413 Y88.135 E150.56665
G1 X102.003 Y88.512 E150.59946
G1 X25.908 Y88.512 E154.16449
G1 X25.908 Y88.889 E154.18215
G1 X102.593 Y88.889 E157.77482
G1 X103.184 Y89.266 E157.80763
G1 X25.908 Y89.266 E161.42795
G1 X25.908 Y89.642 E161.44561
G1 X103.774 Y89.642 E165.09357
G1 X104.364 Y90.019 E165.12638
G1 X25.908 Y90.019 E168.80199
G1 X25.908 Y90.396 E168.81965
G1 X104.954 Y90.396 E172.52290
G1 X105.544 Y90.773 E172.55571
G1 X25.908 Y90.773 E176.28661
G1 X25.908 Y91.150 E176.30427
G1 X106.134 Y91.150 E180.06281
G1 X106.724 Y91.527 E180.09562
G1 X25.908 Y91.527 E183.88180
G1 X25.908 Y91.904 E183.89946
G1 X107.314 Y91.904 E187.71330
G1 X107.904 Y92.281 E187.74610
G1 X25.908 Y92.281 E191.58758
G1 X25.908 Y92.658 E191.60524
G1 X108.092 Y92.658 E195.45553
G1 X108.092 Y93.035 E195.47319
G1 X25.908 Y93.035 E199.32348
G1 X25.908 Y93.412 E199.34115
G1 X108.092 Y93.412 E203.19144
G1 X108.092 Y93.789 E203.20910
G1 X25.908 Y93.789 E207.05939
G1 X25.908 Y94.166 E207.07705
G1 X108.092 Y94.166 E210.92735
G1 X108.092 Y94.543 E210.94501
G1 X25.908 Y94.543 E214.79530
G1 X25.908 Y94.920 E214.81296
G1 X108.092 Y94.920 E218.66325
G1 X108.092 Y95.297 E218.68092
G1 X25.908 Y95.297 E222.53121
G1 X25.908 Y95.674 E222.54887
G1 X108.092 Y95.674 E226.39916
G1 X108.092 Y96.051 E226.41682
G1 X25.908 Y96.051 E230.26712
G1 X25.908 Y96.428 E230.28478
G1 X108.092 Y96.428 E234.13507
G1 X108.092 Y96.805 E234.15273
G1 X25.908 Y96.805 E238.00302
G1 X25.908 Y97.182 E238.02068
G1 X108.092 Y97.182 E241.87098
G1 X108.092 Y97.559 E241.88864
G1 X25.908 Y97.559 E245.73893
G1 X25.908 Y97.936 E245.75659
G1 X108.092 Y97.936 E249.60688
G1 X108.092 Y98.313 E249.62455
G1 X25.908 Y98.313 E253.47484
G1 X25.908 Y98.690 E253.49250
G1 X108.092 Y98.690 E257.34279
G1 X108.092 Y99.067 E257.36045
G1 X25.908 Y99.067 E261.21075
G1 X25.908 Y99.444 E261.22841
G1 X108.092 Y99.444 E265.07870
G1 X108.092 Y99.821 E265.09636
G1 X25.908 Y99.821 E268.94665
G1 X25.908 Y100.198 E268.96432
G1 X108.092 Y100.198 E272.81461
G1 X108.092 Y100.575 E272.83227
G1 X25.908 Y100.575 E276.68256
G1 X25.908 Y100.952 E276.70022
G1 X108.092 Y100.952 E280.55052
G1 X108.092 Y101.329 E280.56818
G1 X25.908 Y101.329 E284.41847
G1 X25.908 Y101.706 E284.43613
G1 X108.092 Y101.706 E288.28642
G1 X108.092 Y102.083 E288.30409
G1 X25.908 Y102.083 E292.15438
G1 X25.908 Y102.460 E292.17204
G1 X108.092 Y102.460 E296.02233
G1 X108.092 Y102.837 E296.03999
G1 X25.908 Y102.837 E299.89028
G1 X25.908 Y103.214 E299.90795
G1 X108.092 Y103.214 E303.75824
G1 X108.092 Y103.591 E303.77590
G1 X25.908 Y103.591 E307.62619
G1 X25.908 Y103.968 E307.64385
G1 X108.092 Y103.968 E311.49415
G1 X108.092 Y104.345 E311.51181
G1 X25.908 Y104.345 E315.36210
G1 X25.908 Y104.722 E315.37976
G1 X108.092 Y104.722 E319.23005
G1 X108.092 Y105.099 E319.24772
G1 X25.908 Y105.099 E323.09801
G1 X25.908 Y105.476 E323.11567
G1 X108.092 Y105.476 E326.96596
G1 X108.092 Y105.853 E326.98362
G1 X25.908 Y105.853 E330.83392
G1 X25.908 Y106.230 E330.85158
G1 X108.092 Y106.230 E334.70187
G1 X108.092 Y106.607 E334.71953
G1 X25.908 Y106.607 E338.56982
G1 X25.908 Y106.984 E338.58749
G1 X108.092 Y106.984 E342.43778
G1 X108.092 Y107.361 E342.45544
G1 X25.908 Y107.361 E346.30573
G1 X25.908 Y107.738 E346.32339
G1 X108.092 Y107.738 E350.17369
G1 X108.092 Y108.115 E350.19135
G1 X25.908 Y108.115 E354.04164
G1 X25.908 Y108.492 E354.05930
G1 X108.092 Y108.492 E357.90959
G1 X108.092 Y108.869 E357.92725
G1 X25.908 Y108.869 E361.77755
G1 X25.908 Y109.246 E361.79521
G1 X108.092 Y109.246 E365.64550
G1 X108.092 Y109.623 E365.66316
G1 X25.908 Y109.623 E369.51345
G1 X25.908 Y110.000 E369.53112
G1 X108.092 Y110.000 E373.38141
G1 X108.092 Y110.377 E373.39907
G1 X25.908 Y110.377 E377.24936
G1 X25.908 Y110.754 E377.26702
G1 X108.092 Y110.754 E381.11732
G1 X108.092 Y111.131 E381.13498
G1 X25.908 Y111.131 E384.98527
G1 X25.908 Y111.508 E385.00293
G1 X108.092 Y111.508 E388.85322
G1 X108.092 Y111.885 E388.87089
G1 X25.908 Y111.885 E392.72118
G1 X25.908 Y112.262 E392.73884
G1 X108.092 Y112.262 E396.58913
G1 X108.092 Y112.639 E396.60679
G1 X25.908 Y112.639 E400.45709
G1 X25.908 Y113.016 E400.47475
G1 X108.092 Y113.016 E404.32504
G1 X108.092 Y113.393 E404.34270
G1 X25.908 Y113.393 E408.19299
G1 X25.908 Y113.770 E408.21065
G1 X108.092 Y113.770 E412.06095
G1 X108.092 Y114.147 E412.07861
G1 X25.908 Y114.147 E415.92890
G1 X25.908 Y114.524 E415.94656
G1 X108.092 Y114.524 E419.79685
G1 X108.092 Y114.901 E419.81452
G1 X25.908 Y114.901 E423.66481
G1 X25.908 Y115.278 E423.68247
G1 X108.092 Y115.278 E427.53276
G1 X108.092 Y115.655 E427.55042
G1 X25.908 Y115.655 E431.40072
G1 X25.908 Y116.032 E431.41838
G1 X108.092 Y116.032 E435.26867
G1 X108.092 Y116.409 E435.28633
G1 X25.908 Y116.409 E439.13662
G1 X25.908 Y116.786 E439.15429
G1 X108.092 Y116.786 E443.00458
G1 X108.092 Y117.163 E443.02224
G1 X25.908 Y117.163 E446.87253
G1 X25.908 Y117.540 E446.89019
G1 X108.092 Y117.540 E450.74049
G1 X108.092 Y117.917 E450.75815
G1 X25.908 Y117.917 E454.60844
G1 X25.908 Y118.294 E454.62610
G1 X108.092 Y118.294 E458.47639
G1 X108.092 Y118.671 E458.49405
G1 X25.908 Y118.671 E462.34435
G1 X25.908 Y119.048 E462.36201
G1 X108.092 Y119.048 E466.21230
G1 X108.092 Y119.425 E466.22996
G1 X25.908 Y119.425 E470.08025
G1 X25.908 Y119.802 E470.09792
G1 X108.092 Y119.802 E473.94821
G1 X108.092 Y120.179 E473.96587
G1 X25.908 Y120.179 E477.81616
G1 X25.908 Y120.556 E477.83382
G1 X108.092 Y120.556 E481.68412
G1 X108.092 Y120.933 E481.70178
G1 X25.908 Y120.933 E485.55207
G1 X25.908 Y121.310 E485.56973
G1 X108.092 Y121.310 E489.42002
G1 X108.092 Y121.687 E489.43769
G1 X25.908 Y121.687 E493.28798
G1 X25.908 Y122.064 E493.30564
G1 X108.092 Y122.064 E497.15593
G1 X108.092 Y122.441 E497.17359
G1 X25.908 Y122.441 E501.02389
G1 X25.908 Y122.818 E501.04155
G1 X108.092 Y122.818 E504.89184
G1 X108.092 Y123.195 E504.90950
G1 X25.908 Y123.195 E508.75979
G1 X25.908 Y123.572 E508.77745
G1 X108.092 Y123.572 E512.62775
G1 X108.092 Y123.949 E512.64541
G1 X25.908 Y123.949 E516.49570
G1 X25.908 Y124.326 E516.51336
G1 X108.092 Y124.326 E520.36365
G1 X108.092 Y124.703 E520.38132
G1 X25.908 Y124.703 E524.23161
G1 X25.908 Y125.080 E524.24927
G1 X108.092 Y125.080 E528.09956
G1 X108.092 Y125.457 E528.11722
G1 X25.908 Y125.457 E531.96752
G1 X25.908 Y125.834 E531.98518
G1 X108.092 Y125.834 E535.83547
G1 X108.092 Y126.211 E535.85313
G1 X25.908 Y126.211 E539.70342
G1 X25.908 Y126.588 E539.72109
G1 X108.092 Y126.588 E543.57138
G1 X108.092 Y126.965 E543.58904
G1 X25.908 Y126.965 E547.43933
G1 X25.908 Y127.342 E547.45699
G1 X108.092 Y127.342 E551.30729
G1 X108.092 Y127.598 E551.31931
G1 X107.904 Y127.719 E551.32978
G1 X25.908 Y127.719 E555.17125
G1 X25.908 Y128.096 E555.18891
G1 X107.314 Y128.096 E559.00273
G1 X106.724 Y128.473 E559.03554
G1 X25.908 Y128.473 E562.82171
G1 X25.908 Y128.850 E562.83938
G1 X106.134 Y128.850 E566.59791
G1 X105.544 Y129.227 E566.63071
G1 X25.908 Y129.227 E570.36160
G1 X25.908 Y129.604 E570.37926
G1 X104.954 Y129.604 E574.08251
G1 X104.363 Y129.981 E574.11531
G1 X25.908 Y129.981 E577.79091
G1 X25.908 Y130.358 E577.80857
G1 X103.773 Y130.358 E581.45653
G1 X103.183 Y130.735 E581.48933
G1 X25.908 Y130.735 E585.10964
G1 X25.908 Y131.112 E585.12730
G1 X102.593 Y131.112 E588.71997
G1 X102.003 Y131.489 E588.75277
G1 X25.908 Y131.489 E592.31779
G1 X25.908 Y131.866 E592.33545
G1 X101.413 Y131.866 E595.87283
G1 X100.823 Y132.243 E595.90563
G1 X25.908 Y132.243 E599.41537
G1 X25.908 Y132.620 E599.43303
G1 X100.233 Y132.620 E602.91511
G1 X99.643 Y132.997 E602.94792
G1 X25.908 Y132.997 E606.40236
G1 X25.908 Y133.374 E606.42002
G1 X99.053 Y133.374 E609.84682
G1 X98.463 Y133.751 E609.87963
G1 X25.908 Y133.751 E613.27878
G1 X25.908 Y134.128 E613.29644
G1 X97.873 Y134.128 E616.66795
G1 X97.283 Y134.505 E616.70075
G1 X25.908 Y134.505 E620.04462
G1 X25.908 Y134.882 E620.06228
G1 X96.692 Y134.882 E623.37850
G1 X96.102 Y135.259 E623.41130
G1 X25.908 Y135.259 E626.69988
G1 X25.908 Y135.636 E626.71754
G1 X95.512 Y135.636 E629.97847
G1 X94.922 Y136.013 E630.01127
G1 X25.908 Y136.013 E633.24456
G1 X25.908 Y136.390 E633.26222
G1 X94.332 Y136.390 E636.46786
G1 X93.742 Y136.766 E636.50067
G1 X25.908 Y136.766 E639.67866
G1 X25.908 Y137.143 E639.69633
G1 X93.152 Y137.143 E642.84668
G1 X92.562 Y137.520 E642.87948
G1 X25.908 Y137.520 E646.00219
G1 X25.908 Y137.897 E646.01985
G1 X91.972 Y137.897 E649.11491
G1 X91.382 Y138.274 E649.14772
G1 X25.908 Y138.274 E652.21514
G1 X25.908 Y138.651 E652.23280
G1 X90.792 Y138.651 E655.27257
G1 X90.202 Y139.028 E655.30538
G1 X25.908 Y139.028 E658.31750
G1 X25.908 Y139.405 E658.33517
G1 X89.612 Y139.405 E661.31965
G1 X89.022 Y139.782 E661.35246
G1 X25.908 Y139.782 E664.30929
G1 X25.908 Y140.159 E664.32696
G1 X88.431 Y140.159 E667.25615
G1 X87.841 Y140.536 E667.28896
G1 X25.908 Y140.536 E670.19051
G1 X25.908 Y140.913 E670.20817
G1 X87.251 Y140.913 E673.08207
G1 X86.661 Y141.290 E673.11488
G1 X25.908 Y141.290 E675.96114
G1 X25.908 Y141.667 E675.97880
G1 X86.071 Y141.667 E678.79742
G1 X85.481 Y142.044 E678.83022
G1 X25.908 Y142.044 E681.62120
G1 X25.908 Y142.421 E681.63886
G1 X84.891 Y142.421 E684.40219
G1 X84.301 Y142.798 E684.43499
G1 X25.908 Y142.798 E687.17067
G1 X25.908 Y143.175 E687.18833
G1 X83.711 Y143.175 E689.89637
G1 X83.121 Y143.552 E689.92918
G1 X25.908 Y143.552 E692.60957
G1 X25.908 Y143.929 E692.62723
G1 X82.531 Y143.929 E695.27998
G1 X81.941 Y144.306 E695.31279
G1 X25.908 Y144.306 E697.93789
G1 X25.908 Y144.683 E697.95555
G1 X81.351 Y144.683 E700.55301
G1 X80.760 Y145.060 E700.58582
G1 X25.908 Y145.060 E703.15563
G1 X25.908 Y145.437 E703.17330
G1 X80.170 Y145.437 E705.71547
G1 X79.580 Y145.814 E705.74827
G1 X25.908 Y145.814 E708.26280
G1 X25.908 Y146.191 E708.28046
G1 X78.990 Y146.191 E710.76734
G1 X78.400 Y146.568 E710.80015
G1 X25.908 Y146.568 E713.25938
G1 X25.908 Y146.945 E713.27704
G1 X77.810 Y146.945 E715.70864
G1 X77.220 Y147.322 E715.74144
G1 X25.908 Y147.322 E718.14539
G1 X25.908 Y147.699 E718.16305
G1 X76.630 Y147.699 E720.53936
G1 X76.040 Y148.076 E720.57216
G1 X25.908 Y148.076 E722.92082
G1 X25.908 Y148.453 E722.93848
G1 X75.450 Y148.453 E725.25949
G1 X74.860 Y148.830 E725.29230
G1 X25.908 Y148.830 E727.58567
G1 X25.908 Y149.207 E727.60333
G1 X74.270 Y149.207 E729.86906
G1 X73.680 Y149.584 E729.90186
G1 X25.908 Y149.584 E732.13994
G1 X25.908 Y149.961 E732.15760
G1 X73.090 Y149.961 E734.36804
G1 X72.499 Y150.338 E734.40084
G1 X25.908 Y150.338 E736.58363
G1 X25.908 Y150.715 E736.60130
G1 X71.909 Y150.715 E738.75644
G1 X71.319 Y151.092 E738.78925
G1 X25.908 Y151.092 E740.91675
G1 E738.91675 F2400.00000
G92 E0
G1 X111.908 Y151.092 F7200.000
G1 E2.00000 F2400.00000
G1 F1200
G1 X157.319 Y151.092 E4.12750
G1 X157.909 Y150.715 E4.16031
G1 X111.908 Y150.715 E6.31545
G1 X111.908 Y150.338 E6.33312
G1 X158.499 Y150.338 E8.51591
G1 X159.090 Y149.961 E8.54871
G1 X111.908 Y149.961 E10.75915
G1 X111.908 Y149.584 E10.77681
G1 X159.680 Y149.584 E13.01489
G1 X160.270 Y149.207 E13.04769
G1 X111.908 Y149.207 E15.31342
G1 X111.908 Y148.830 E15.33108
G1 X160.860 Y148.830 E17.62445
G1 X161.450 Y148.453 E17.65726
G1 X111.908 Y148.453 E19.97827
G1 X111.908 Y148.076 E19.99593
G1 X162.040 Y148.076 E22.34459
G1 X162.630 Y147.699 E22.37739
G1 X111.908 Y147.699 E24.75370
G1 X111.908 Y147.322 E24.77136
G1 X163.220 Y147.322 E27.17531
G1 X163.810 Y146.945 E27.20811
G1 X111.908 Y146.945 E29.63971
G1 X111.908 Y146.568 E29.65737
G1 X164.400 Y146.568 E32.11660
